; generated by PrusaSlicer 2.6.0 on 2023-07-09 at 07:20:14 UTC

; 

; external perimeters extrusion width = 0.90mm
; perimeters extrusion width = 0.90mm
; infill extrusion width = 0.90mm
; solid infill extrusion width = 0.90mm
; top infill extrusion width = 0.80mm

M190 S60 ; set bed temperature and wait for it to be reached
;TYPE:Custom
; Start GCODE (begins)

G28 ; home all axes
G1 Z5 F5000 ; lift nozzle

M109 S200 ; Do this now so we can purge

; Extrude a small amount of waste material
G92 E0
G1 E20 F200
G92 E0

; Start GCODE (ends)
G21 ; set units to millimeters
G90 ; use absolute coordinates
M82 ; use absolute distances for extrusion
G92 E0
; Filament gcode
M107
;LAYER_CHANGE
;Z:0.35
;HEIGHT:0.35
G1 Z.43 F9000
G1 E-.3 F2400
G92 E0
G1 X142.877 Y152.536 F9000
G1 E.4 F2400
;TYPE:Skirt/Brim
;WIDTH:0.9
G1 F1200
G1 X144.579 Y151.017 E.68752
G1 X146.619 Y149.527 E1.00591
G1 X148.69 Y148.315 E1.30834
G1 X150.864 Y147.313 E1.61004
G1 X153.017 Y146.561 E1.89747
G1 X155.472 Y145.965 E2.21587
G1 X157.849 Y145.638 E2.51827
G1 X160.172 Y145.543 E2.81129
G1 X162.518 Y145.673 E3.10742
G1 X165.015 Y146.062 E3.42592
G1 X167.336 Y146.669 E3.72828
G1 X169.582 Y147.498 E4.03002
G1 X171.636 Y148.488 E4.31739
G1 X173.794 Y149.803 E4.63589
G1 X175.706 Y151.252 E4.93825
G1 X177.464 Y152.877 E5.23997
G1 X178.983 Y154.579 E5.52749
G1 X180.473 Y156.619 E5.84588
G1 X181.685 Y158.69 E6.14831
G1 X182.687 Y160.864 E6.45001
G1 X183.439 Y163.017 E6.73744
G1 X184.035 Y165.472 E7.05584
G1 X184.362 Y167.849 E7.35824
G1 X184.456 Y170.241 E7.65995
G1 X184.327 Y172.518 E7.94739
G1 X183.938 Y175.015 E8.26589
G1 X183.331 Y177.336 E8.56825
G1 X182.502 Y179.582 E8.86999
G1 X181.512 Y181.636 E9.15736
G1 X180.197 Y183.794 E9.47586
G1 X178.748 Y185.706 E9.77822
G1 X177.123 Y187.464 E10.07994
G1 X175.421 Y188.983 E10.36746
G1 X173.381 Y190.473 E10.68585
G1 X171.31 Y191.685 E10.98828
G1 X169.136 Y192.687 E11.28998
G1 X166.983 Y193.439 E11.57741
G1 X164.528 Y194.035 E11.89581
G1 X162.151 Y194.362 E12.19821
G1 X159.759 Y194.456 E12.49992
G1 X157.482 Y194.327 E12.78736
G1 X154.985 Y193.938 E13.10586
G1 X152.664 Y193.331 E13.40822
G1 X150.418 Y192.502 E13.70996
G1 X148.364 Y191.512 E13.99733
G1 X146.206 Y190.197 E14.31583
G1 X144.294 Y188.748 E14.61819
G1 X142.536 Y187.123 E14.91991
G1 X141.017 Y185.421 E15.20743
G1 X139.527 Y183.381 E15.52582
G1 X138.315 Y181.31 E15.82825
G1 X137.313 Y179.136 E16.12995
G1 X136.561 Y176.983 E16.41738
G1 X135.965 Y174.528 E16.73578
G1 X135.629 Y172.054 E17.05045
G1 X135.543 Y169.793 E17.33562
G1 X135.673 Y167.48 E17.6276
G1 X136.062 Y164.985 E17.94585
G1 X136.669 Y162.664 E18.24821
G1 X137.498 Y160.418 E18.54995
G1 X138.488 Y158.364 E18.83732
G1 X139.803 Y156.206 E19.15582
G1 X141.252 Y154.294 E19.45818
G1 X142.796 Y152.624 E19.74483
G1 E19.44483 F2400
G92 E0
G1 X165.249 Y155.384 F9000
G1 E.4 F2400
;TYPE:Perimeter
;WIDTH:0.9
G1 F1200
G1 X166.079 Y155.707 E.51225
G1 X166.717 Y155.995 E.60047
G1 X167.352 Y156.318 E.69026
G1 X168.173 Y156.792 E.80974
G1 X168.77 Y157.181 E.89955
G1 X169.339 Y157.589 E.98779
G1 X169.984 Y158.102 E1.09166
G1 X170.601 Y158.648 E1.1955
G1 X171.082 Y159.117 E1.28017
G1 X171.565 Y159.632 E1.36916
G1 X172.028 Y160.173 E1.45891
G1 X172.605 Y160.925 E1.57837
G1 X173.008 Y161.513 E1.66821
G1 X173.378 Y162.108 E1.75652
G1 X173.777 Y162.828 E1.86027
G1 X174.138 Y163.569 E1.96415
G1 X174.403 Y164.186 E2.04878
G1 X174.652 Y164.847 E2.1378
G1 X174.873 Y165.524 E2.22756
G1 X175.185 Y166.755 E2.38761
G1 X175.295 Y167.314 E2.45941
G1 X175.394 Y167.955 E2.54116
G1 X175.481 Y168.78 E2.64571
G1 X175.525 Y169.595 E2.74858
G1 X175.532 Y170.141 E2.8174
G1 X175.509 Y170.846 E2.9063
G1 X175.454 Y171.557 E2.99618
G1 X175.33 Y172.496 E3.11555
G1 X175.2 Y173.197 E3.20541
G1 X175.04 Y173.879 E3.2937
G1 X174.813 Y174.67 E3.39742
G1 X174.545 Y175.449 E3.50125
G1 X174.284 Y176.101 E3.58976
G1 X174.005 Y176.716 E3.67487
G1 X173.682 Y177.352 E3.76477
G1 X173.208 Y178.173 E3.88425
G1 X172.819 Y178.77 E3.97406
G1 X172.411 Y179.339 E4.0623
G1 X171.898 Y179.984 E4.16617
G1 X171.352 Y180.601 E4.27001
G1 X170.883 Y181.082 E4.35468
G1 X170.368 Y181.565 E4.44367
G1 X169.827 Y182.028 E4.53342
G1 X169.075 Y182.605 E4.65288
G1 X168.487 Y183.008 E4.74272
G1 X167.892 Y183.378 E4.83103
G1 X167.172 Y183.777 E4.93478
G1 X166.432 Y184.138 E5.03855
G1 X165.787 Y184.414 E5.12697
G1 X165.12 Y184.664 E5.21675
G1 X164.217 Y184.949 E5.33609
G1 X163.526 Y185.127 E5.42602
G1 X162.865 Y185.266 E5.51115
G1 X162.172 Y185.38 E5.59967
G1 X161.354 Y185.473 E5.70343
G1 X160.531 Y185.523 E5.80735
G1 X159.859 Y185.532 E5.89205
G1 X159.154 Y185.509 E5.98095
G1 X158.443 Y185.454 E6.07083
G1 X157.504 Y185.33 E6.1902
G1 X156.803 Y185.2 E6.28006
G1 X156.121 Y185.04 E6.36835
G1 X155.33 Y184.813 E6.47207
G1 X154.551 Y184.545 E6.5759
G1 X153.899 Y184.284 E6.66441
G1 X153.284 Y184.005 E6.74952
G1 X152.648 Y183.682 E6.83942
G1 X151.827 Y183.208 E6.9589
G1 X151.23 Y182.819 E7.04871
G1 X150.661 Y182.411 E7.13695
G1 X150.016 Y181.898 E7.24082
G1 X149.399 Y181.352 E7.34466
G1 X148.918 Y180.883 E7.42933
G1 X148.435 Y180.368 E7.51832
G1 X147.972 Y179.827 E7.60807
G1 X147.395 Y179.075 E7.72753
G1 X146.992 Y178.487 E7.81737
G1 X146.622 Y177.892 E7.90568
G1 X146.223 Y177.172 E8.00943
G1 X145.862 Y176.431 E8.11331
G1 X145.597 Y175.814 E8.19794
G1 X145.348 Y175.153 E8.28696
G1 X145.124 Y174.467 E8.37791
G1 X144.946 Y173.824 E8.462
G1 X144.741 Y172.898 E8.58153
G1 X144.624 Y172.195 E8.67135
G1 X144.54 Y171.496 E8.76008
G1 X144.487 Y170.77 E8.85182
G1 X144.468 Y169.879 E8.96414
G1 X144.488 Y169.205 E9.04912
G1 X144.546 Y168.441 E9.14569
G1 X144.67 Y167.504 E9.26481
G1 X144.8 Y166.803 E9.35467
G1 X144.96 Y166.121 E9.44296
G1 X145.187 Y165.33 E9.54668
G1 X145.455 Y164.55 E9.65063
G1 X145.704 Y163.926 E9.73531
G1 X145.995 Y163.283 E9.82426
G1 X146.318 Y162.648 E9.91405
G1 X146.792 Y161.827 E10.03353
G1 X147.181 Y161.23 E10.12334
G1 X147.589 Y160.661 E10.21158
G1 X148.102 Y160.016 E10.31545
G1 X148.648 Y159.399 E10.41929
G1 X149.117 Y158.918 E10.50396
G1 X149.632 Y158.435 E10.59295
G1 X150.173 Y157.972 E10.6827
G1 X150.925 Y157.395 E10.80216
G1 X151.513 Y156.992 E10.892
G1 X152.108 Y156.622 E10.98031
G1 X152.828 Y156.223 E11.08406
G1 X153.569 Y155.862 E11.18794
G1 X154.186 Y155.597 E11.27257
G1 X154.847 Y155.348 E11.36159
G1 X155.533 Y155.124 E11.45254
G1 X156.176 Y154.946 E11.53663
G1 X157.102 Y154.741 E11.65616
G1 X157.805 Y154.624 E11.74598
G1 X158.501 Y154.54 E11.83434
G1 X159.324 Y154.483 E11.93831
G1 X160.086 Y154.469 E12.03436
G1 X160.849 Y154.491 E12.13056
G1 X161.565 Y154.547 E12.22108
G1 X162.228 Y154.629 E12.30528
G1 X163.162 Y154.793 E12.4248
G1 X163.857 Y154.954 E12.51471
G1 X164.531 Y155.143 E12.60293
G1 X165.135 Y155.346 E12.68324
G1 X165.511 Y154.602 F9000
G1 F1200
G1 X166.4 Y154.947 E12.80343
G1 X167.074 Y155.251 E12.89662
G1 X167.746 Y155.593 E12.99165
G1 X168.604 Y156.089 E13.11656
G1 X169.236 Y156.499 E13.21151
G1 X169.837 Y156.931 E13.30479
G1 X170.514 Y157.47 E13.41385
G1 X171.163 Y158.044 E13.52305
G1 X171.671 Y158.539 E13.61244
G1 X172.18 Y159.081 E13.70615
G1 X172.669 Y159.654 E13.80109
G1 X173.273 Y160.44 E13.92602
G1 X173.699 Y161.062 E14.02104
G1 X174.089 Y161.69 E14.11421
G1 X174.509 Y162.447 E14.22332
G1 X174.888 Y163.225 E14.33239
G1 X175.168 Y163.878 E14.42194
G1 X175.431 Y164.573 E14.5156
G1 X175.664 Y165.29 E14.61062
G1 X175.921 Y166.247 E14.73551
G1 X176.077 Y166.984 E14.83045
G1 X176.197 Y167.715 E14.92381
G1 X176.277 Y168.42 E15.01323
G1 X176.35 Y169.585 E15.16035
G1 X176.357 Y170.149 E15.23144
G1 X176.333 Y170.891 E15.32501
G1 X176.275 Y171.643 E15.42007
G1 X176.145 Y172.625 E15.54491
G1 X176.007 Y173.366 E15.63991
G1 X175.839 Y174.087 E15.73321
G1 X175.6 Y174.919 E15.84231
G1 X175.318 Y175.737 E15.95136
G1 X175.043 Y176.425 E16.04474
G1 X174.749 Y177.073 E16.13442
G1 X174.407 Y177.746 E16.22956
G1 X173.911 Y178.604 E16.35447
G1 X173.501 Y179.236 E16.44942
G1 X173.069 Y179.837 E16.5427
G1 X172.53 Y180.514 E16.65176
G1 X171.956 Y181.163 E16.76096
G1 X171.461 Y181.671 E16.85035
G1 X170.919 Y182.18 E16.94406
G1 X170.346 Y182.669 E17.039
G1 X169.56 Y183.273 E17.16393
G1 X168.938 Y183.699 E17.25895
G1 X168.31 Y184.089 E17.35212
G1 X167.553 Y184.509 E17.46123
G1 X166.775 Y184.888 E17.5703
G1 X166.095 Y185.18 E17.66357
G1 X165.389 Y185.444 E17.75857
G1 X164.444 Y185.742 E17.88345
G1 X163.714 Y185.93 E17.97846
G1 X163.017 Y186.077 E18.06824
G1 X162.285 Y186.197 E18.16173
G1 X161.426 Y186.295 E18.2707
G1 X160.561 Y186.348 E18.37992
G1 X159.851 Y186.357 E18.46941
G1 X159.109 Y186.333 E18.56298
G1 X158.357 Y186.275 E18.65804
G1 X157.375 Y186.145 E18.78288
G1 X156.634 Y186.007 E18.87788
G1 X155.913 Y185.839 E18.97118
G1 X155.081 Y185.6 E19.08028
G1 X154.263 Y185.318 E19.18933
G1 X153.575 Y185.043 E19.28271
G1 X152.927 Y184.749 E19.37239
G1 X152.254 Y184.407 E19.46753
G1 X151.396 Y183.911 E19.59244
G1 X150.764 Y183.501 E19.68739
G1 X150.163 Y183.069 E19.78067
G1 X149.486 Y182.53 E19.88973
G1 X148.837 Y181.956 E19.99893
G1 X148.329 Y181.461 E20.08832
G1 X147.82 Y180.919 E20.18203
G1 X147.331 Y180.346 E20.27697
G1 X146.727 Y179.56 E20.4019
G1 X146.301 Y178.938 E20.49692
G1 X145.911 Y178.31 E20.59009
G1 X145.491 Y177.553 E20.6992
G1 X145.112 Y176.775 E20.80827
G1 X144.832 Y176.122 E20.89782
G1 X144.569 Y175.427 E20.99148
G1 X144.334 Y174.705 E21.08718
G1 X144.145 Y174.023 E21.17637
G1 X143.931 Y173.055 E21.30132
G1 X143.807 Y172.312 E21.39626
G1 X143.719 Y171.575 E21.48981
G1 X143.663 Y170.809 E21.58661
G1 X143.643 Y169.876 E21.70423
G1 X143.664 Y169.161 E21.79438
G1 X143.726 Y168.356 E21.89614
G1 X143.855 Y167.374 E22.02097
G1 X143.993 Y166.634 E22.11584
G1 X144.161 Y165.913 E22.20914
G1 X144.4 Y165.081 E22.31824
G1 X144.682 Y164.263 E22.42729
G1 X144.945 Y163.603 E22.51683
G1 X145.251 Y162.926 E22.61047
G1 X145.593 Y162.254 E22.7055
G1 X146.089 Y161.396 E22.83041
G1 X146.5 Y160.764 E22.92543
G1 X146.931 Y160.163 E23.01864
G1 X147.47 Y159.486 E23.1277
G1 X148.044 Y158.837 E23.2369
G1 X148.539 Y158.329 E23.32629
G1 X149.081 Y157.82 E23.42
G1 X149.654 Y157.331 E23.51494
G1 X150.44 Y156.727 E23.63987
G1 X151.062 Y156.301 E23.73489
G1 X151.69 Y155.911 E23.82806
G1 X152.447 Y155.491 E23.93717
G1 X153.225 Y155.112 E24.04624
G1 X153.878 Y154.832 E24.13579
G1 X154.573 Y154.569 E24.22945
G1 X155.295 Y154.334 E24.32515
G1 X155.977 Y154.145 E24.41434
G1 X156.945 Y153.931 E24.53929
G1 X157.689 Y153.807 E24.63435
G1 X158.423 Y153.719 E24.72752
G1 X159.287 Y153.659 E24.83668
G1 X160.09 Y153.644 E24.9379
G1 X160.893 Y153.667 E25.03915
G1 X161.648 Y153.726 E25.1346
G1 X162.35 Y153.813 E25.22375
G1 X163.327 Y153.985 E25.34878
G1 X164.061 Y154.155 E25.44374
G1 X164.774 Y154.355 E25.53707
G1 X165.397 Y154.564 E25.61989
G1 X165.773 Y153.819 F9000
;TYPE:External perimeter
G1 F1200
G1 X166.721 Y154.186 E25.74801
G1 X167.431 Y154.508 E25.84627
G1 X168.139 Y154.868 E25.94637
G1 X169.036 Y155.385 E26.07686
G1 X169.701 Y155.818 E26.17687
G1 X170.335 Y156.273 E26.27522
G1 X171.044 Y156.838 E26.38948
G1 X171.724 Y157.439 E26.50386
G1 X172.26 Y157.961 E26.59816
G1 X172.794 Y158.531 E26.6966
G1 X173.31 Y159.134 E26.79663
G1 X173.941 Y159.955 E26.92713
G1 X174.39 Y160.611 E27.02732
G1 X174.801 Y161.273 E27.12553
G1 X175.241 Y162.066 E27.23983
G1 X175.639 Y162.882 E27.35425
G1 X175.934 Y163.569 E27.44848
G1 X176.209 Y164.3 E27.54691
G1 X176.455 Y165.055 E27.64699
G1 X176.723 Y166.055 E27.77747
G1 X176.888 Y166.832 E27.87758
G1 X177.014 Y167.601 E27.97579
G1 X177.097 Y168.327 E28.06789
G1 X177.174 Y169.574 E28.22535
G1 X177.182 Y170.156 E28.29871
G1 X177.157 Y170.937 E28.39719
G1 X177.095 Y171.729 E28.49731
G1 X176.96 Y172.755 E28.62774
G1 X176.815 Y173.536 E28.72785
G1 X176.637 Y174.295 E28.82611
G1 X176.387 Y175.167 E28.94044
G1 X176.092 Y176.025 E29.05479
G1 X175.802 Y176.748 E29.15297
G1 X175.493 Y177.431 E29.24745
G1 X175.132 Y178.139 E29.34761
G1 X174.615 Y179.036 E29.4781
G1 X174.182 Y179.701 E29.57811
G1 X173.727 Y180.335 E29.67646
G1 X173.162 Y181.044 E29.79072
G1 X172.561 Y181.724 E29.9051
G1 X172.039 Y182.26 E29.9994
G1 X171.47 Y182.794 E30.09775
G1 X170.866 Y183.31 E30.19787
G1 X170.045 Y183.941 E30.32837
G1 X169.389 Y184.39 E30.42856
G1 X168.727 Y184.801 E30.52677
G1 X167.934 Y185.241 E30.64107
G1 X167.119 Y185.638 E30.75533
G1 X166.402 Y185.945 E30.85363
G1 X165.658 Y186.224 E30.95378
G1 X164.671 Y186.535 E31.0842
G1 X163.901 Y186.734 E31.18443
G1 X163.168 Y186.888 E31.27883
G1 X162.399 Y187.014 E31.37704
G1 X161.497 Y187.117 E31.49146
G1 X160.592 Y187.172 E31.60573
G1 X159.844 Y187.182 E31.70001
G1 X159.063 Y187.157 E31.79849
G1 X158.271 Y187.095 E31.89861
G1 X157.245 Y186.96 E32.02904
G1 X156.464 Y186.815 E32.12915
G1 X155.705 Y186.637 E32.22741
G1 X154.833 Y186.387 E32.34174
G1 X153.975 Y186.092 E32.45609
G1 X153.252 Y185.802 E32.55427
G1 X152.569 Y185.493 E32.64875
G1 X151.861 Y185.132 E32.74891
G1 X150.964 Y184.615 E32.8794
G1 X150.299 Y184.182 E32.97941
G1 X149.665 Y183.727 E33.07776
G1 X148.956 Y183.162 E33.19202
G1 X148.276 Y182.561 E33.3064
G1 X147.74 Y182.039 E33.4007
G1 X147.206 Y181.47 E33.49905
G1 X146.69 Y180.866 E33.59917
G1 X146.059 Y180.045 E33.72967
G1 X145.61 Y179.389 E33.82986
G1 X145.199 Y178.727 E33.92807
G1 X144.759 Y177.934 E34.04237
G1 X144.361 Y177.118 E34.15679
G1 X144.066 Y176.431 E34.25102
G1 X143.791 Y175.7 E34.34945
G1 X143.544 Y174.943 E34.44981
G1 X143.345 Y174.223 E34.54396
G1 X143.121 Y173.212 E34.67447
G1 X142.99 Y172.429 E34.77453
G1 X142.897 Y171.654 E34.87291
G1 X142.838 Y170.848 E34.97476
G1 X142.818 Y169.872 E35.09779
G1 X142.84 Y169.117 E35.19299
G1 X142.905 Y168.27 E35.30005
G1 X143.04 Y167.245 E35.43035
G1 X143.185 Y166.464 E35.53046
G1 X143.363 Y165.705 E35.62872
G1 X143.613 Y164.833 E35.74305
G1 X143.908 Y163.975 E35.8574
G1 X144.186 Y163.28 E35.95174
G1 X144.508 Y162.569 E36.05011
G1 X144.868 Y161.861 E36.15021
G1 X145.385 Y160.964 E36.2807
G1 X145.818 Y160.298 E36.38082
G1 X146.273 Y159.665 E36.47907
G1 X146.838 Y158.956 E36.59333
G1 X147.439 Y158.276 E36.70771
G1 X147.961 Y157.74 E36.80201
G1 X148.531 Y157.206 E36.90045
G1 X149.134 Y156.69 E37.00048
G1 X149.955 Y156.059 E37.13098
G1 X150.611 Y155.61 E37.23117
G1 X151.273 Y155.199 E37.32938
G1 X152.066 Y154.759 E37.44368
G1 X152.882 Y154.361 E37.5581
G1 X153.569 Y154.066 E37.65233
G1 X154.3 Y153.791 E37.75076
G1 X155.057 Y153.544 E37.85112
G1 X155.777 Y153.345 E37.94527
G1 X156.788 Y153.121 E38.07578
G1 X157.572 Y152.99 E38.17596
G1 X158.346 Y152.897 E38.27421
G1 X159.251 Y152.834 E38.38855
G1 X160.094 Y152.818 E38.49482
G1 X160.937 Y152.843 E38.60111
G1 X161.73 Y152.905 E38.70136
G1 X162.472 Y152.996 E38.79558
G1 X163.492 Y153.176 E38.92612
G1 X164.266 Y153.356 E39.02627
G1 X165.016 Y153.566 E39.12443
G1 X165.659 Y153.781 E39.20988
G1 X165.914 Y154.607 F9000
G1 E38.90988 F2400
G92 E0
G1 X165.409 Y154.523 F9000
G1 X164.321 Y170.38
G1 X164.3 Y170.568
G1 X164.272 Y170.754
G1 X164.234 Y170.941
G1 X164.19 Y171.123
G1 X164.136 Y171.306
G1 X164.075 Y171.485
G1 X164.007 Y171.66
G1 X163.93 Y171.835
G1 X163.847 Y172.005
G1 X163.757 Y172.169
G1 X163.658 Y172.331
G1 X163.552 Y172.489
G1 X163.441 Y172.641
G1 X163.322 Y172.79
G1 X163.198 Y172.931
G1 X163.066 Y173.068
G1 X162.93 Y173.198
G1 X162.787 Y173.324
G1 X162.639 Y173.442
G1 X162.488 Y173.553
G1 X162.329 Y173.659
G1 X162.167 Y173.758
G1 X162.001 Y173.849
G1 X161.831 Y173.932
G1 X161.658 Y174.008
G1 X161.482 Y174.077
G1 X161.302 Y174.138
G1 X161.124 Y174.189
G1 X161.362 Y175.008
G1 E.4 F2400
;TYPE:Perimeter
G1 F1200
G1 X161.126 Y175.069 E.43072
G1 X160.45 Y175.173 E.51692
G1 X160.045 Y175.195 E.56804
G1 X159.499 Y175.171 E.63692
G1 X159.097 Y175.113 E.68811
G1 X158.435 Y174.951 E.77401
G1 X158.054 Y174.817 E.82491
G1 X157.558 Y174.586 E.89387
G1 X157.209 Y174.379 E.94501
G1 X156.66 Y173.975 E1.03092
G1 X156.359 Y173.706 E1.0818
G1 X155.989 Y173.302 E1.15084
G1 X155.746 Y172.977 E1.20198
G1 X155.393 Y172.395 E1.28777
G1 X155.218 Y172.031 E1.33867
G1 X154.956 Y171.259 E1.44142
G1 X154.862 Y170.675 E1.51597
G1 X154.804 Y170.069 E1.5927
G1 X154.852 Y169.319 E1.68742
G1 X154.96 Y168.763 E1.7588
G1 X155.101 Y168.256 E1.82512
