; generated by PrusaSlicer 2.6.0 on 2023-07-09 at 07:20:12 UTC

; 

; external perimeters extrusion width = 0.90mm
; perimeters extrusion width = 0.90mm
; infill extrusion width = 0.90mm
; solid infill extrusion width = 0.90mm
; top infill extrusion width = 0.80mm

M190 S60 ; set bed temperature and wait for it to be reached
;TYPE:Custom
; Start GCODE (begins)

G28 ; home all axes
G1 Z5 F5000 ; lift nozzle

M109 S200 ; Do this now so we can purge

; Extrude a small amount of waste material
G92 E0
G1 E20 F200
G92 E0

; Start GCODE (ends)
G21 ; set units to millimeters
G90 ; use absolute coordinates
M82 ; use absolute distances for extrusion
G92 E0
; Filament gcode
M107
;LAYER_CHANGE
;Z:0.35
;HEIGHT:0.35
G1 Z.43 F9000
G1 E-.3 F2400
G92 E0
G1 X141.354 Y155.174 F9000
G1 E.4 F2400
;TYPE:Skirt/Brim
;WIDTH:0.9
G1 F1200
G1 X143.257 Y153.833 E.69341
G1 X146.18 Y153.175 E1.07103
G1 X166.329 Y153.177 E3.61049
G1 X168.905 Y153.399 E3.93636
G1 X171.097 Y153.911 E4.22006
G1 X173.155 Y154.69 E4.4974
G1 X175.345 Y155.891 E4.81219
G1 X177.108 Y157.208 E5.08954
G1 X178.684 Y158.744 E5.3669
G1 X180.047 Y160.473 E5.64438
G1 X180.675 Y161.459 E5.79171
G1 X181.364 Y162.755 E5.9767
G1 X182.18 Y164.799 E6.25408
G1 X182.722 Y166.932 E6.53145
G1 X182.981 Y169.118 E6.80889
G1 X182.927 Y171.615 E7.12367
G1 X182.573 Y173.787 E7.40103
G1 X181.92 Y175.941 E7.68471
G1 X180.824 Y178.283 E8.0106
G1 X179.618 Y180.123 E8.28788
G1 X178.483 Y181.475 E8.51036
G1 X177.436 Y182.504 E8.69538
G1 X176.304 Y183.437 E8.88026
G1 X174.721 Y184.495 E9.12023
G1 X173.425 Y185.184 E9.30522
G1 X171.794 Y185.86 E9.52774
G1 X169.967 Y186.392 E9.76757
G1 X168.524 Y186.66 E9.95255
G1 X166.18 Y186.825 E10.2487
G1 X146.18 Y186.825 E12.76938
G1 X143.886 Y186.428 E13.0628
G1 X141.859 Y185.283 E13.35621
G1 X140.013 Y182.923 E13.73383
G1 X139.124 Y180.941 E14.00761
G1 X138.299 Y178.624 E14.31759
G1 X137.889 Y177.163 E14.50884
G1 X137.386 Y174.755 E14.81888
G1 X137.112 Y172.601 E15.09254
G1 X136.996 Y170.144 E15.40255
G1 X137.088 Y167.686 E15.71256
G1 X137.247 Y166.177 E15.9038
G1 X137.612 Y164.036 E16.17753
G1 X138.216 Y161.651 E16.48761
G1 X139.018 Y159.326 E16.79758
G1 X140.013 Y157.077 E17.10753
G1 X141.285 Y155.272 E17.38583
G1 E17.08583 F2400
G92 E0
G1 X154.6 Y162.103 F9000
G1 E.4 F2400
;TYPE:Perimeter
;WIDTH:0.9
G1 F1200
G1 X147.817 Y165.897 E1.37953
G1 X147.216 Y166.269 E1.46861
G1 X146.777 Y166.627 E1.54
G1 X146.358 Y167.093 E1.61898
G1 X146.07 Y167.558 E1.68792
G1 X146.261 Y166.32 E1.8458
G1 X146.373 Y165.742 E1.92
G1 X146.569 Y164.913 E2.02736
G1 X146.803 Y164.087 E2.13556
G1 X147.128 Y163.118 E2.26437
G1 X147.528 Y162.1 E2.40222
G1 X154.48 Y162.103 E3.27841
G1 E2.97841 F2400
G92 E0
G1 X154.93 Y162.907 F9000
G1 X156.318 Y162.131
G1 X156.903 Y161.909
G1 X158.427 Y161.434
G1 X165.562 Y161.434
G1 X166.189 Y161.435
G1 X166.552 Y161.442
G1 X166.922 Y161.467
G1 X167.291 Y161.507
G1 X167.658 Y161.563
G1 X167.714 Y161.574
G1 X168.023 Y161.635
G1 X168.384 Y161.723
G1 X168.74 Y161.826
G1 X169.092 Y161.945
G1 X169.439 Y162.078
G1 X169.491 Y162.101
G1 X169.779 Y162.227
G1 X170.112 Y162.39
G1 X170.162 Y162.417
G1 X170.438 Y162.568
G1 X170.757 Y162.76
G1 X170.804 Y162.79
G1 X171.066 Y162.965
G1 X171.366 Y163.183
G1 X171.657 Y163.414
G1 X171.937 Y163.658
G1 X172.207 Y163.913
G1 X172.247 Y163.954
G1 X172.465 Y164.18
G1 X172.503 Y164.222
G1 X172.711 Y164.458
G1 X172.909 Y164.702
G1 X172.945 Y164.746
G1 X173.133 Y164.999
G1 X173.167 Y165.045
G1 X173.199 Y165.091
G1 X173.375 Y165.352
G1 X173.54 Y165.62
G1 X173.569 Y165.668
G1 X173.598 Y165.718
G1 X173.75 Y165.993
G1 X173.891 Y166.274
G1 X173.917 Y166.325
G1 X174.046 Y166.611
G1 X174.069 Y166.663
G1 X174.185 Y166.955
G1 X174.206 Y167.008
G1 X174.31 Y167.305
G1 X174.328 Y167.359
G1 X174.419 Y167.66
G1 X174.435 Y167.715
G1 X174.512 Y168.019
G1 X174.526 Y168.075
G1 X174.538 Y168.13
G1 X174.602 Y168.438
G1 X174.653 Y168.749
G1 X174.662 Y168.805
G1 X174.699 Y169.117
G1 X174.705 Y169.173
G1 X174.729 Y169.487
G1 X174.733 Y169.544
G1 X174.743 Y169.858
G1 X174.745 Y169.915
G1 X174.745 Y169.972
G1 X174.741 Y170.286
G1 X174.738 Y170.343
G1 X174.72 Y170.657
G1 X174.689 Y170.97
G1 X174.684 Y171.026
G1 X174.639 Y171.338
G1 X174.631 Y171.394
G1 X174.573 Y171.703
G1 X174.563 Y171.759
G1 X174.55 Y171.815
G1 X174.479 Y172.121
G1 X174.394 Y172.424
G1 X174.379 Y172.478
G1 X174.282 Y172.777
G1 X174.264 Y172.831
G1 X174.244 Y172.885
G1 X174.133 Y173.179
G1 X174.011 Y173.468
G1 X173.988 Y173.521
G1 X173.853 Y173.805
G1 X173.828 Y173.856
G1 X173.681 Y174.134
G1 X173.654 Y174.184
G1 X173.495 Y174.455
G1 X173.466 Y174.504
G1 X173.295 Y174.768
G1 X173.263 Y174.815
G1 X173.081 Y175.072
G1 X173.048 Y175.118
G1 X172.855 Y175.366
G1 X172.82 Y175.411
G1 X172.783 Y175.454
G1 X172.579 Y175.693
G1 X172.365 Y175.924
G1 X172.326 Y175.965
G1 X172.286 Y176.006
G1 X172.062 Y176.226
G1 X171.829 Y176.437
G1 X171.787 Y176.475
G1 X171.545 Y176.676
G1 X171.501 Y176.712
G1 X171.25 Y176.902
G1 X171.205 Y176.936
G1 X170.946 Y177.115
G1 X170.899 Y177.148
G1 X170.852 Y177.178
G1 X170.585 Y177.345
G1 X170.312 Y177.501
G1 X170.263 Y177.529
G1 X169.983 Y177.673
G1 X169.932 Y177.699
G1 X169.881 Y177.723
G1 X169.595 Y177.855
G1 X169.304 Y177.974
G1 X169.252 Y177.995
G1 X169.198 Y178.015
G1 X168.902 Y178.121
G1 X168.602 Y178.215
G1 X168.548 Y178.231
G1 X168.244 Y178.312
G1 X168.189 Y178.326
G1 X168.133 Y178.339
G1 X167.826 Y178.405
G1 X167.516 Y178.459
G1 X167.46 Y178.469
G1 X167.404 Y178.476
G1 X167.092 Y178.516
G1 X166.778 Y178.543
G1 X166.722 Y178.548
G1 X166.407 Y178.561
G1 X166.351 Y178.563
G1 X166.294 Y178.563
G1 X165.979 Y178.565
G1 X165.665 Y178.557
G1 X165.608 Y178.555
G1 X165.236 Y178.537
G1 X164.863 Y178.51
G1 X164.548 Y178.481
G1 X164.49 Y178.474
G1 X164.116 Y178.428
G1 X163.8 Y178.383
G1 X163.363 Y178.307
G1 X163.046 Y178.245
G1 X162.668 Y178.16
G1 X162.225 Y178.044
G1 X161.927 Y177.916
G1 X161.868 Y177.886
G1 X161.531 Y177.692
G1 X161.202 Y177.483
G1 X160.882 Y177.26
G1 X160.572 Y177.023
G1 X160.273 Y176.774
G1 X159.985 Y176.511
G1 X159.846 Y176.373
G1 X159.224 Y176.999
G1 E.4 F2400
;WIDTH:0.950706
G1 F1200
G1 X159.44 Y177.215 E.44087
G1 X160.232 Y177.875 E.57879
G1 X159.193 Y177.875 E.71779
;WIDTH:0.951349
G1 X151.966 Y177.875 E1.68534
;WIDTH:0.992351
G1 X151.234 Y177.854 E1.78797
G1 X150.982 Y177.869 E1.82335
;WIDTH:0.963055
G1 X150.73 Y177.883 E1.85759
;WIDTH:0.93376
G1 X149.968 Y177.9 E1.95758
;WIDTH:0.9
G1 X147.529 Y177.9 E2.26498
G1 X147.098 Y176.802 E2.41364
G1 X146.794 Y175.887 E2.53516
G1 X146.364 Y174.217 E2.7525
G1 X146.205 Y173.382 E2.85963
G1 X146.056 Y172.316 E2.99529
G1 X145.987 Y171.631 E3.08206
G1 X145.936 Y170.773 E3.19039
G1 X146.098 Y171.088 E3.23503
G1 X146.404 Y171.558 E3.30571
G1 X146.93 Y172.098 E3.40072
G1 X147.465 Y172.49 E3.48431
G1 X147.852 Y172.67 E3.5381
G1 X148.364 Y172.865 E3.60715
G1 X148.348 Y173.251 E3.65584
G1 X148.393 Y173.878 E3.73507
G1 X148.537 Y174.47 E3.81186
G1 X148.814 Y175.088 E3.89722
G1 X149.191 Y175.629 E3.98033
G1 X149.491 Y175.951 E4.0358
G1 X150.075 Y176.406 E4.12911
;WIDTH:0.900627
G1 X150.656 Y176.703 E4.21141
;WIDTH:0.946489
G1 X150.979 Y176.822 E4.25724
;WIDTH:0.992351
G1 X151.303 Y176.942 E4.30566
G1 X151.966 Y176.998 E4.39891
;WIDTH:0.951349
G1 X159.036 Y176.999 E5.34544
;WIDTH:0.950706
G1 X159.104 Y176.999 E5.35454
G1 E5.05454 F2400
G92 E0
G1 X159.104 Y176.112 F9000
G1 X161.202 Y177.483
G1 X161.531 Y177.692
G1 X161.868 Y177.886
G1 X161.927 Y177.916
G1 X162.225 Y178.044
G1 X162.668 Y178.16
G1 X163.046 Y178.245
G1 X163.363 Y178.307
G1 X163.8 Y178.383
G1 X164.116 Y178.428
G1 X164.49 Y178.474
G1 X164.548 Y178.481
G1 X164.863 Y178.51
G1 X165.236 Y178.537
G1 X165.608 Y178.555
G1 X165.665 Y178.557
G1 X165.979 Y178.565
G1 X166.294 Y178.563
G1 X166.351 Y178.563
G1 X166.407 Y178.561
G1 X166.722 Y178.548
G1 X166.778 Y178.543
G1 X167.092 Y178.516
G1 X167.404 Y178.476
G1 X167.46 Y178.469
G1 X167.516 Y178.459
G1 X167.826 Y178.405
G1 X168.133 Y178.339
G1 X168.189 Y178.326
G1 X168.244 Y178.312
G1 X168.548 Y178.231
G1 X168.602 Y178.215
G1 X168.902 Y178.121
G1 X169.198 Y178.015
G1 X169.252 Y177.995
G1 X169.304 Y177.974
G1 X169.595 Y177.855
G1 X169.881 Y177.723
G1 X169.932 Y177.699
G1 X169.983 Y177.673
G1 X170.263 Y177.529
G1 X170.312 Y177.501
G1 X170.585 Y177.345
G1 X170.852 Y177.178
G1 X170.899 Y177.148
G1 X170.946 Y177.115
G1 X171.205 Y176.936
G1 X171.25 Y176.902
G1 X171.501 Y176.712
G1 X171.545 Y176.676
G1 X171.787 Y176.475
G1 X171.829 Y176.437
G1 X172.062 Y176.226
G1 X172.286 Y176.006
G1 X172.326 Y175.965
G1 X172.365 Y175.924
G1 X172.579 Y175.693
G1 X172.783 Y175.454
G1 X172.82 Y175.411
G1 X172.855 Y175.366
G1 X173.048 Y175.118
G1 X173.081 Y175.072
G1 X173.263 Y174.815
G1 X173.295 Y174.768
G1 X173.466 Y174.504
G1 X173.495 Y174.455
G1 X173.654 Y174.184
G1 X173.681 Y174.134
G1 X173.828 Y173.856
G1 X173.853 Y173.805
G1 X173.988 Y173.521
G1 X174.011 Y173.468
G1 X174.133 Y173.179
G1 X174.244 Y172.885
G1 X174.264 Y172.831
G1 X174.282 Y172.777
G1 X174.379 Y172.478
G1 X174.394 Y172.424
G1 X174.479 Y172.121
G1 X174.55 Y171.815
G1 X174.563 Y171.759
G1 X174.573 Y171.703
G1 X174.631 Y171.394
G1 X174.639 Y171.338
G1 X174.684 Y171.026
G1 X174.689 Y170.97
G1 X174.72 Y170.657
G1 X174.738 Y170.343
G1 X174.741 Y170.286
G1 X174.745 Y169.972
G1 X174.745 Y169.915
G1 X174.743 Y169.858
G1 X174.733 Y169.544
G1 X174.729 Y169.487
G1 X174.705 Y169.173
G1 X174.699 Y169.117
G1 X174.662 Y168.805
G1 X174.653 Y168.749
G1 X174.602 Y168.438
G1 X174.538 Y168.13
G1 X174.526 Y168.075
G1 X174.512 Y168.019
G1 X174.435 Y167.715
G1 X174.419 Y167.66
G1 X174.328 Y167.359
G1 X174.31 Y167.305
G1 X174.206 Y167.008
G1 X174.185 Y166.955
G1 X174.069 Y166.663
G1 X174.046 Y166.611
G1 X173.917 Y166.325
G1 X173.891 Y166.274
G1 X173.75 Y165.993
G1 X173.598 Y165.718
G1 X173.569 Y165.668
G1 X173.54 Y165.62
G1 X173.375 Y165.352
G1 X173.199 Y165.091
G1 X173.167 Y165.045
G1 X173.133 Y164.999
G1 X172.945 Y164.746
G1 X172.909 Y164.702
G1 X172.711 Y164.458
G1 X172.503 Y164.222
G1 X172.465 Y164.18
G1 X172.247 Y163.954
G1 X172.207 Y163.913
G1 X171.937 Y163.658
G1 X171.657 Y163.414
G1 X171.366 Y163.183
G1 X171.066 Y162.965
G1 X170.804 Y162.79
G1 X170.757 Y162.76
G1 X170.438 Y162.568
G1 X170.162 Y162.417
G1 X170.112 Y162.39
G1 X169.779 Y162.227
G1 X169.491 Y162.101
G1 X169.439 Y162.078
G1 X169.092 Y161.945
G1 X168.74 Y161.826
G1 X168.384 Y161.723
G1 X168.023 Y161.635
G1 X167.714 Y161.574
G1 X167.658 Y161.563
G1 X167.291 Y161.507
G1 X166.922 Y161.467
G1 X166.552 Y161.442
G1 X166.189 Y161.435
G1 X165.562 Y161.434
G1 X158.427 Y161.434
G1 X157.88 Y161.622
G1 X157.763 Y161.28
G1 E.4 F2400
;WIDTH:0.9
G1 F1200
G1 X148.22 Y166.616 E1.77799
G1 X147.738 Y166.908 E1.84902
G1 X147.299 Y167.266 E1.92041
G1 X147.047 Y167.545 E1.96779
;WIDTH:0.945188
G1 X146.901 Y167.754 E2.00168
;WIDTH:0.990377
G1 X146.754 Y167.963 E2.03741
;WIDTH:1.03557
G1 X146.608 Y168.172 E2.07482
;WIDTH:1.07508
G1 X146.555 Y168.268 E2.09157
;WIDTH:1.11459
G1 X146.503 Y168.363 E2.10877
;WIDTH:1.1541
G1 X146.451 Y168.458 E2.12662
;WIDTH:1.19362
G1 X146.398 Y168.554 E2.14536
G1 X146.336 Y169.159 E2.24929
;WIDTH:1.17785
G1 X146.335 Y169.695 E2.3396
G1 X146.371 Y169.769 E2.35347
;WIDTH:1.13799
G1 X146.407 Y169.843 E2.36683
;WIDTH:1.09814
G1 X146.503 Y170.042 E2.40137
;WIDTH:1.04861
G1 X146.599 Y170.241 E2.43423
;WIDTH:0.999071
G1 X146.694 Y170.44 E2.46536
;WIDTH:0.949535
G1 X146.79 Y170.639 E2.49488
;WIDTH:0.9
G1 X147.082 Y171.088 E2.56238
G1 X147.467 Y171.472 E2.63091
G1 X147.919 Y171.795 E2.70093
G1 X148.436 Y172.026 E2.7723
G1 X148.938 Y172.129 E2.83689
G1 X149.399 Y172.158 E2.89511
G1 X149.253 Y172.575 E2.95079
G1 X149.173 Y173.098 E3.01747
G1 X149.2 Y173.704 E3.09392
G1 X149.358 Y174.302 E3.17187
G1 X149.64 Y174.852 E3.24977
G1 X150.031 Y175.327 E3.32731
G1 X150.486 Y175.691 E3.40075
G1 X150.935 Y175.926 E3.46462
G1 X151.434 Y176.081 E3.53048
G1 X151.966 Y176.148 E3.59806
G1 X159.596 Y176.149 E4.5597
G1 X159.999 Y176.574 E4.63352
G1 X160.592 Y177.085 E4.73218
G1 X161.23 Y177.545 E4.83131
G1 X161.934 Y177.962 E4.93443
G1 X162.627 Y178.293 E5.03122
G1 X163.579 Y178.639 E5.15888
G1 X163.898 Y178.725 E5.20052
G1 X146.987 Y178.725 E7.33188
G1 X146.594 Y177.808 E7.45762
G1 X146.32 Y177.076 E7.55613
G1 X146.005 Y176.129 E7.68191
G1 X145.766 Y175.276 E7.79356
G1 X145.561 Y174.411 E7.9056
G1 X145.394 Y173.538 E8.01762
G1 X145.263 Y172.659 E8.12963
G1 X145.17 Y171.775 E8.24166
G1 X145.132 Y171.187 E8.31592
;WIDTH:0.923867
G1 X145.118 Y170.52 E8.40244
;WIDTH:0.966197
G1 X145.138 Y170.395 E8.41967
;WIDTH:1.00853
G1 X145.158 Y170.269 E8.43786
;WIDTH:1.05086
G1 X145.178 Y170.144 E8.45673
;WIDTH:1.09319
G1 X145.198 Y170.018 E8.47657
;WIDTH:1.13552
G1 X145.219 Y169.893 E8.49711
;WIDTH:1.17785
G1 X145.239 Y169.767 E8.5186
G1 X145.239 Y169.407 E8.57925
;WIDTH:1.16345
G1 X145.259 Y168.886 E8.66595
;WIDTH:1.19362
G1 X145.309 Y168.343 E8.75914
G1 X145.3 Y168.229 E8.77868
;WIDTH:1.1541
G1 X145.292 Y168.114 E8.79768
;WIDTH:1.11459
G1 X145.283 Y167.999 E8.816
;WIDTH:1.07508
G1 X145.274 Y167.885 E8.83347
;WIDTH:1.03557
G1 X145.27 Y167.709 E8.8593
;WIDTH:0.990377
G1 X145.265 Y167.534 E8.88378
;WIDTH:0.945188
G1 X145.261 Y167.359 E8.90705
;WIDTH:0.9
G1 X145.451 Y166.164 E9.05955
G1 X145.57 Y165.552 E9.13813
G1 X145.775 Y164.69 E9.2498
G1 X146.02 Y163.827 E9.36287
G1 X146.355 Y162.829 E9.49555
G1 X146.606 Y162.163 E9.58525
G1 X146.987 Y161.275 E9.70703
G1 X157.643 Y161.28 E11.05005
G1 E10.75005 F2400
G92 E0
G1 X157.773 Y161.659 F9000
G1 X156.903 Y161.909
G1 X156.318 Y162.131
G1 X147.925 Y166.824
G1 X147.83 Y166.88
G1 X147.726 Y166.948
G1 X147.625 Y167.019
G1 X147.528 Y167.095
G1 X147.433 Y167.176
G1 X147.343 Y167.26
G1 X147.256 Y167.348
G1 X147.173 Y167.44
G1 X147.094 Y167.536
G1 X147.02 Y167.635
G1 X146.949 Y167.737
G1 X146.884 Y167.842
G1 X146.823 Y167.95
G1 X146.766 Y168.06
G1 X146.715 Y168.172
G1 X146.669 Y168.287
G1 X146.627 Y168.404
G1 X146.591 Y168.522
G1 X146.56 Y168.642
G1 X146.534 Y168.763
G1 X146.513 Y168.885
G1 X146.498 Y169.008
G1 X146.488 Y169.132
G1 X146.484 Y169.255
G1 X146.485 Y169.379
G1 X146.491 Y169.503
G1 X146.503 Y169.626
G1 X146.52 Y169.749
G1 X146.543 Y169.87
G1 X146.571 Y169.991
G1 X146.604 Y170.11
G1 X146.642 Y170.228
G1 X146.685 Y170.344
G1 X146.733 Y170.458
G1 X146.787 Y170.57
G1 X146.845 Y170.679
G1 X146.908 Y170.786
G1 X146.975 Y170.89
G1 X147.047 Y170.991
G1 X147.123 Y171.088
G1 X147.203 Y171.182
G1 X147.288 Y171.273
G1 X147.376 Y171.36
G1 X147.468 Y171.443
G1 X147.621 Y171.504
G1 X147.857 Y171.583
G1 X147.976 Y171.615
G1 X148.212 Y171.661
G1 X148.329 Y171.675
G1 X148.56 Y171.689
G1 X148.673 Y171.688
G1 X148.785 Y171.683
G1 X148.895 Y171.673
G1 X149.003 Y171.659
G1 X149.108 Y171.642
G1 X149.314 Y171.596
G1 X149.413 Y171.568
G1 X149.509 Y171.538
G1 X149.604 Y171.505
G1 X149.696 Y171.469
G1 X149.874 Y171.392
G1 X149.96 Y171.351
G1 X160.63 Y166.069
G1 X160.633 Y166.072
G1 X161.425 Y165.713
G1 E.4 F2400
;TYPE:External perimeter
;WIDTH:0.837555
G1 F1200
G1 X160.874 Y165.147 E.49202
G1 X150.68 Y170.847 E1.85258
;WIDTH:0.879301
G1 X150.107 Y171.171 E1.93346
;WIDTH:0.892103
G1 X149.926 Y171.244 E1.95782
;WIDTH:0.9
G1 X149.426 Y171.329 E2.02174
G1 X149.056 Y171.313 E2.06842
G1 X148.706 Y171.246 E2.11333
G1 X148.237 Y171.032 E2.1783
G1 X147.83 Y170.697 E2.24474
G1 X147.482 Y170.19 E2.32224
G1 X147.297 Y169.595 E2.40077
G1 X147.301 Y168.974 E2.47904
G1 X147.455 Y168.452 E2.54763
G1 X147.737 Y167.998 E2.61499
G1 X148.252 Y167.553 E2.70077
G1 X150.164 Y166.474 E2.97747
;WIDTH:0.94663
G1 X152.908 Y164.913 E3.39784
;WIDTH:0.99326
G1 X155.651 Y163.352 E3.84058
;WIDTH:1.03989
G1 X158.395 Y161.791 E4.30594
;WIDTH:1.08266
G1 X158.442 Y161.752 E4.31534
;WIDTH:1.12544
G1 X158.489 Y161.713 E4.32514
;WIDTH:1.16821
G1 X158.536 Y161.674 E4.33534
G1 X158.63 Y161.67 E4.35105
;WIDTH:1.15999
G1 X166.181 Y161.671 E5.60268
;WIDTH:1.15843
G1 X166.878 Y161.703 E5.71817
;WIDTH:1.15982
G1 X167.595 Y161.791 E5.83789
;WIDTH:1.16172
G1 X168.3 Y161.944 E5.95766
G1 X168.989 Y162.162 E6.07764
;WIDTH:1.16292
G1 X170.005 Y162.601 E6.26159
G1 X170.609 Y162.95 E6.37753
;WIDTH:1.15448
G1 X171.203 Y163.359 E6.49647
;WIDTH:1.15912
G1 X171.761 Y163.817 E6.61603
