; generated by PrusaSlicer 2.6.0 on 2023-07-09 at 07:20:16 UTC

; 

; external perimeters extrusion width = 0.90mm
; perimeters extrusion width = 0.90mm
; infill extrusion width = 0.90mm
; solid infill extrusion width = 0.90mm
; top infill extrusion width = 0.80mm

M190 S60 ; set bed temperature and wait for it to be reached
;TYPE:Custom
; Start GCODE (begins)

G28 ; home all axes
G1 Z5 F5000 ; lift nozzle

M109 S200 ; Do this now so we can purge

; Extrude a small amount of waste material
G92 E0
G1 E20 F200
G92 E0

; Start GCODE (ends)
G21 ; set units to millimeters
G90 ; use absolute coordinates
M82 ; use absolute distances for extrusion
G92 E0
; Filament gcode
M107
;LAYER_CHANGE
;Z:0.35
;HEIGHT:0.35
G1 Z.43 F9000
G1 E-.3 F2400
G92 E0
G1 X125.502 Y159.507 F9000
G1 E.4 F2400
;TYPE:Skirt/Brim
;WIDTH:0.9
G1 F1200
G1 X126.695 Y158.592 E.58949
G1 X128.25 Y157.67 E.81733
G1 X129.773 Y157.009 E1.02658
G1 X164.253 Y144.477 E5.65036
G1 X166.512 Y143.854 E5.9457
G1 X168.788 Y143.435 E6.23737
G1 X171.091 Y143.213 E6.52897
G1 X173.405 Y143.191 E6.82063
G1 X174.854 Y143.28 E7.0036
G1 X177.148 Y143.582 E7.29522
G1 X179.408 Y144.08 E7.58689
G1 X181.577 Y144.759 E7.87334
G1 X183.595 Y145.577 E8.14778
G1 X185.53 Y146.553 E8.42092
G1 X186.805 Y147.307 E8.60761
G1 X188.707 Y148.624 E8.89918
G1 X190.27 Y149.904 E9.1538
G1 X191.935 Y151.51 E9.44536
G1 X192.907 Y152.589 E9.62839
G1 X194.332 Y154.412 E9.92001
G1 X195.443 Y156.099 E10.17459
G1 X196.555 Y158.127 E10.46609
G1 X197.489 Y160.245 E10.75783
G1 X198.237 Y162.434 E11.04938
G1 X198.609 Y163.838 E11.23244
G1 X199.036 Y166.071 E11.51897
G1 X199.26 Y168.118 E11.7785
G1 X199.323 Y170.431 E12.07012
G1 X199.186 Y172.741 E12.36177
G1 X198.85 Y175.031 E12.65348
G1 X198.539 Y176.449 E12.83644
G1 X197.887 Y178.669 E13.12805
G1 X197.045 Y180.824 E13.41965
G1 X196.04 Y182.863 E13.70615
G1 X194.984 Y184.632 E13.96581
G1 X193.639 Y186.515 E14.25746
G1 X192.715 Y187.634 E14.44036
G1 X191.12 Y189.311 E14.73205
G1 X189.386 Y190.843 E15.02367
G1 X187.77 Y192.055 E15.27826
G1 X185.813 Y193.288 E15.56978
G1 X183.488 Y194.471 E15.89856
G1 X180.519 Y195.598 E16.29881
G1 X177.995 Y196.255 E16.62752
G1 X175.712 Y196.631 E16.91913
G1 X172.542 Y196.824 E17.3194
G1 X169.907 Y196.697 E17.65188
G1 X166.809 Y196.212 E18.04709
G1 X165.39 Y195.864 E18.23123
G1 X163.325 Y195.206 E18.50438
G1 X129.093 Y182.722 E23.09672
G1 X127.461 Y181.896 E23.32725
G1 X125.73 Y180.684 E23.59358
G1 X124.21 Y179.229 E23.85877
G1 X123.093 Y177.806 E24.08677
G1 X122.309 Y176.515 E24.27713
G1 X121.788 Y175.427 E24.42917
G1 X121.274 Y174.014 E24.61867
G1 X120.974 Y172.846 E24.77066
G1 X120.778 Y171.656 E24.92266
G1 X120.679 Y170.159 E25.11174
G1 X120.745 Y168.647 E25.30248
G1 X120.915 Y167.453 E25.45448
G1 X121.189 Y166.279 E25.60642
G1 X121.674 Y164.848 E25.79685
G1 X122.309 Y163.486 E25.98625
G1 X122.924 Y162.448 E26.13831
G1 X123.626 Y161.467 E26.29034
G1 X124.615 Y160.339 E26.47941
G1 X125.415 Y159.589 E26.61762
G1 E26.31762 F2400
G92 E0
G1 X177.607 Y170.94 F9000
G1 E.4 F2400
;TYPE:Perimeter
;WIDTH:0.9
G1 F1200
G1 X177.592 Y171.059 E.41512
G1 X177.387 Y171.76 E.50717
G1 X177.209 Y172.192 E.56606
G1 X176.88 Y172.792 E.6523
G1 X176.652 Y173.126 E.70327
G1 X176.301 Y173.544 E.77206
G1 X175.836 Y173.968 E.85137
G1 X175.388 Y174.323 E.92341
G1 X174.802 Y174.652 E1.00811
G1 X174.281 Y174.878 E1.07969
G1 X173.624 Y175.07 E1.16596
G1 X172.897 Y175.173 E1.2585
G1 X172.369 Y175.196 E1.32511
G1 X171.778 Y175.144 E1.39988
G1 X171.281 Y175.041 E1.46385
G1 X170.725 Y174.879 E1.53684
G1 X170.31 Y174.707 E1.59346
G1 X169.711 Y174.378 E1.67959
G1 X169.377 Y174.15 E1.73056
G1 X168.958 Y173.798 E1.79953
G1 X168.353 Y173.126 E1.91349
G1 X168.125 Y172.792 E1.96446
G1 X167.795 Y172.192 E2.05076
G1 X167.636 Y171.818 E2.10198
G1 X167.47 Y171.29 E2.17174
G1 X167.387 Y170.895 E2.22261
G1 X167.314 Y170.221 E2.30805
G1 X167.311 Y169.816 E2.3591
G1 X167.36 Y169.266 E2.42869
G1 X167.434 Y168.869 E2.47959
G1 X167.624 Y168.22 E2.56482
G1 X167.796 Y167.807 E2.62121
G1 X168.125 Y167.207 E2.70745
G1 X168.353 Y166.874 E2.75831
G1 X168.704 Y166.456 E2.8271
G1 X168.993 Y166.173 E2.87808
G1 X169.527 Y165.745 E2.96433
G1 X169.865 Y165.524 E3.01523
G1 X170.349 Y165.272 E3.084
G1 X170.936 Y165.054 E3.16292
G1 X171.416 Y164.915 E3.2259
G1 X172.161 Y164.825 E3.32048
G1 X172.672 Y164.808 E3.38492
G1 X173.224 Y164.855 E3.45474
G1 X173.633 Y164.933 E3.50722
G1 X174.281 Y165.122 E3.59229
G1 X174.696 Y165.294 E3.64891
G1 X175.295 Y165.622 E3.73498
G1 X175.733 Y165.938 E3.80305
G1 X176.128 Y166.274 E3.86841
G1 X176.652 Y166.874 E3.96881
G1 X176.88 Y167.208 E4.01978
G1 X177.209 Y167.808 E4.10602
G1 X177.381 Y168.223 E4.16264
G1 X177.572 Y168.879 E4.24875
G1 X177.65 Y169.311 E4.30408
G1 X177.694 Y169.82 E4.36847
G1 X177.654 Y170.549 E4.46049
G1 X177.621 Y170.821 E4.49502
G1 X176.784 Y170.839 F9000
G1 F1200
G1 X176.766 Y170.979 E4.51281
G1 X176.6 Y171.512 E4.58317
G1 X176.353 Y172.038 E4.65641
G1 X176.09 Y172.503 E4.72374
G1 X175.743 Y172.926 E4.7927
G1 X175.496 Y173.183 E4.83762
G1 X174.957 Y173.615 E4.92468
G1 X174.421 Y173.92 E5.00241
G1 X174.05 Y174.086 E5.05364
G1 X173.393 Y174.278 E5.13991
G1 X172.825 Y174.352 E5.2121
G1 X172.394 Y174.37 E5.26647
G1 X171.85 Y174.323 E5.33529
G1 X171.034 Y174.11 E5.44158
G1 X170.707 Y173.984 E5.48575
G1 X170.107 Y173.655 E5.57199
G1 X169.488 Y173.167 E5.67133
G1 X168.985 Y172.596 E5.76724
G1 X168.519 Y171.796 E5.88393
G1 X168.257 Y171.043 E5.98441
G1 X168.135 Y170.133 E6.10013
G1 X168.181 Y169.339 E6.20037
G1 X168.416 Y168.451 E6.31614
G1 X168.848 Y167.604 E6.43597
G1 X169.336 Y166.986 E6.53521
G1 X170.043 Y166.388 E6.65192
G1 X170.73 Y166.004 E6.75111
G1 X171.45 Y165.757 E6.84705
G1 X172.251 Y165.645 E6.94899
G1 X172.601 Y165.63 E6.99314
G1 X173.153 Y165.677 E7.06296
G1 X173.88 Y165.864 E7.15757
G1 X174.299 Y166.017 E7.21379
G1 X174.898 Y166.346 E7.29992
G1 X175.516 Y166.833 E7.39909
G1 X175.64 Y166.953 E7.42084
G1 X176.02 Y167.405 E7.49526
G1 X176.352 Y167.961 E7.57688
G1 X176.584 Y168.437 E7.64362
G1 X176.78 Y169.11 E7.73196
G1 X176.872 Y169.879 E7.82957
G1 X176.8 Y170.72 E7.93595
G1 X175.979 Y170.687 F9000
;TYPE:External perimeter
G1 F1200
G1 X175.814 Y171.264 E8.01159
G1 X175.434 Y171.999 E8.11587
G1 X175.111 Y172.396 E8.18037
G1 X174.446 Y172.968 E8.29092
G1 X173.894 Y173.264 E8.36986
G1 X173.171 Y173.483 E8.46507
G1 X172.538 Y173.549 E8.54528
G1 X171.922 Y173.501 E8.62315
G1 X171.265 Y173.318 E8.70911
G1 X170.504 Y172.932 E8.81665
G1 X170.019 Y172.535 E8.89564
G1 X169.617 Y172.065 E8.97359
G1 X169.242 Y171.399 E9.06992
G1 X169.044 Y170.796 E9.14991
G1 X168.955 Y170.044 E9.24535
G1 X169.003 Y169.412 E9.32523
G1 X169.208 Y168.683 E9.42067
G1 X169.571 Y168.001 E9.51804
G1 X169.967 Y167.517 E9.59686
G1 X170.559 Y167.032 E9.69331
G1 X171.111 Y166.735 E9.77231
G1 X171.698 Y166.544 E9.85011
G1 X172.342 Y166.465 E9.93188
G1 X173.082 Y166.499 E10.02524
G1 X173.902 Y166.74 E10.13296
G1 X174.501 Y167.069 E10.21909
G1 X175.027 Y167.505 E10.3052
G1 X175.388 Y167.935 E10.37596
G1 X175.763 Y168.601 E10.47229
G1 X175.988 Y169.341 E10.56977
G1 X176.05 Y169.951 E10.64705
G1 X175.991 Y170.568 E10.72517
G1 X176.433 Y171.079 F9000
G1 E10.42517 F2400
G92 E0
G1 X176.784 Y170.69 F9000
G1 X176.774 Y170.753
G1 X176.737 Y170.939
G1 X176.692 Y171.123
G1 X176.639 Y171.304
G1 X176.578 Y171.484
G1 X176.51 Y171.66
G1 X176.434 Y171.833
G1 X176.35 Y172.003
G1 X176.259 Y172.169
G1 X176.161 Y172.331
G1 X176.056 Y172.488
G1 X175.944 Y172.641
G1 X175.825 Y172.788
G1 X175.7 Y172.931
G1 X175.57 Y173.067
G1 X175.433 Y173.198
G1 X175.291 Y173.323
G1 X175.143 Y173.441
G1 X174.99 Y173.553
G1 X174.833 Y173.658
G1 X174.671 Y173.757
G1 X174.505 Y173.848
G1 X174.336 Y173.931
G1 X174.162 Y174.008
G1 X173.986 Y174.076
G1 X173.807 Y174.137
G1 X173.625 Y174.19
G1 X173.441 Y174.235
G1 X173.256 Y174.272
G1 X173.069 Y174.301
G1 X172.88 Y174.321
G1 X172.692 Y174.334
G1 X172.502 Y174.338
G1 X172.313 Y174.334
G1 X172.124 Y174.321
G1 X171.936 Y174.301
G1 X171.749 Y174.272
G1 X171.563 Y174.235
G1 X171.38 Y174.19
G1 X171.198 Y174.137
G1 X171.019 Y174.076
G1 X170.843 Y174.008
G1 X170.669 Y173.931
G1 X170.499 Y173.848
G1 X170.333 Y173.757
G1 X170.172 Y173.658
G1 X170.014 Y173.553
G1 X169.862 Y173.441
G1 X169.714 Y173.323
G1 X169.572 Y173.198
G1 X169.435 Y173.067
G1 X169.304 Y172.931
G1 X169.179 Y172.788
G1 X169.061 Y172.641
G1 X168.949 Y172.488
G1 X168.844 Y172.331
G1 X168.746 Y172.169
G1 X168.655 Y172.003
G1 X168.571 Y171.833
G1 X168.495 Y171.66
G1 X168.426 Y171.484
G1 X168.365 Y171.304
G1 X168.312 Y171.123
G1 X168.267 Y170.939
G1 X168.23 Y170.753
G1 X168.202 Y170.566
G1 X168.181 Y170.378
G1 X168.169 Y170.189
G1 X168.165 Y170
G1 X168.169 Y169.811
G1 X168.181 Y169.622
G1 X168.189 Y169.553
G1 X133.742 Y165.832
G1 X133.587 Y165.052
G1 E.4 F2400
;TYPE:Perimeter
;WIDTH:0.816231
G1 F1200
G1 X133.889 Y164.964 E.43562
;WIDTH:0.858115
G1 X134.191 Y164.876 E.47325
;WIDTH:0.9
G1 X134.493 Y164.788 E.5129
G1 X166.357 Y153.188 E4.78668
G1 X167.11 Y152.932 E4.88692
G1 X167.851 Y152.715 E4.98423
G1 X168.601 Y152.531 E5.08156
G1 X169.358 Y152.379 E5.17887
G1 X170.121 Y152.259 E5.27622
G1 X170.888 Y152.173 E5.37349
G1 X171.657 Y152.12 E5.47064
G1 X172.459 Y152.101 E5.57175
G1 X173.203 Y152.114 E5.66553
G1 X173.974 Y152.161 E5.76288
G1 X174.742 Y152.241 E5.8602
G1 X175.506 Y152.354 E5.95754
G1 X176.264 Y152.5 E6.05483
G1 X177.015 Y152.679 E6.15213
G1 X177.758 Y152.889 E6.24944
G1 X178.491 Y153.132 E6.34677
G1 X179.213 Y153.406 E6.4441
G1 X179.923 Y153.711 E6.54149
G1 X180.618 Y154.046 E6.63873
G1 X181.299 Y154.411 E6.73611
G1 X181.963 Y154.805 E6.83342
G1 X182.61 Y155.227 E6.93078
G1 X183.238 Y155.677 E7.02815
G1 X183.845 Y156.153 E7.12537
G1 X184.432 Y156.655 E7.22272
G1 X184.997 Y157.182 E7.3201
G1 X185.538 Y157.733 E7.41742
G1 X186.055 Y158.307 E7.51478
G1 X186.546 Y158.902 E7.61201
G1 X187.012 Y159.518 E7.70936
G1 X187.451 Y160.154 E7.80676
G1 X187.861 Y160.808 E7.90404
G1 X188.244 Y161.479 E8.00142
G1 X188.596 Y162.166 E8.09871
G1 X188.919 Y162.867 E8.19599
G1 X189.212 Y163.582 E8.29338
G1 X189.473 Y164.308 E8.39061
G1 X189.703 Y165.046 E8.48804
G1 X189.9 Y165.792 E8.58528
G1 X190.036 Y166.413 E8.6654
G1 X190.23 Y167.551 E8.8109
G1 X190.31 Y168.21 E8.89457
G1 X190.371 Y168.992 E8.99343
G1 X190.398 Y169.751 E9.08915
G1 X190.398 Y170.386 E9.16918
G1 X190.365 Y171.158 E9.26657
G1 X190.298 Y171.927 E9.36386
G1 X190.198 Y172.693 E9.46122
G1 X190.066 Y173.453 E9.55844
G1 X189.9 Y174.208 E9.65587
G1 X189.703 Y174.954 E9.75311
G1 X189.473 Y175.692 E9.85054
G1 X189.212 Y176.418 E9.94777
G1 X188.919 Y177.133 E10.04516
G1 X188.596 Y177.834 E10.14244
G1 X188.244 Y178.521 E10.23973
G1 X187.861 Y179.192 E10.33711
G1 X187.451 Y179.846 E10.43439
G1 X187.012 Y180.482 E10.53179
G1 X186.546 Y181.098 E10.62914
G1 X186.055 Y181.693 E10.72637
G1 X185.538 Y182.267 E10.82373
G1 X184.997 Y182.818 E10.92105
G1 X184.432 Y183.345 E11.01843
G1 X183.845 Y183.847 E11.11578
G1 X183.238 Y184.323 E11.213
G1 X182.61 Y184.773 E11.31037
G1 X181.963 Y185.195 E11.40773
G1 X181.299 Y185.589 E11.50504
G1 X180.618 Y185.954 E11.60242
G1 X179.923 Y186.289 E11.69966
G1 X179.213 Y186.594 E11.79705
G1 X178.491 Y186.868 E11.89438
G1 X177.758 Y187.111 E11.99171
G1 X177.015 Y187.321 E12.08902
G1 X176.264 Y187.5 E12.18632
G1 X175.506 Y187.646 E12.28361
G1 X174.742 Y187.759 E12.38095
G1 X173.974 Y187.839 E12.47827
G1 X173.203 Y187.886 E12.57562
G1 X172.431 Y187.9 E12.67293
G1 X171.659 Y187.88 E12.77026
G1 X170.888 Y187.827 E12.86766
G1 X170.121 Y187.741 E12.96493
G1 X169.358 Y187.621 E13.06228
G1 X168.601 Y187.469 E13.15959
G1 X167.851 Y187.285 E13.25692
G1 X167.11 Y187.068 E13.35423
G1 X166.357 Y186.812 E13.45447
G1 X134.478 Y175.2 E17.73054
G1 X134.194 Y175.119 E17.76776
;WIDTH:0.856663
G1 X133.91 Y175.038 E17.80303
;WIDTH:0.813327
G1 X133.625 Y174.958 E17.83642
;WIDTH:0.806254
G1 X133.843 Y175.002 E17.86126
;WIDTH:0.853127
G1 X134.172 Y175.048 E17.90075
;WIDTH:0.9
G1 X134.501 Y175.093 E17.9426
G1 X134.905 Y175.079 E17.99355
G1 X135.822 Y174.919 E18.11087
G1 X136.449 Y174.706 E18.19433
G1 X136.856 Y174.516 E18.25094
G1 X137.745 Y173.93 E18.38514
G1 X138.378 Y173.308 E18.49699
G1 X138.913 Y172.545 E18.61444
G1 X139.206 Y171.952 E18.6978
G1 X139.359 Y171.531 E18.75426
G1 X139.516 Y170.892 E18.83719
G1 X139.574 Y170.493 E18.88801
G1 X139.597 Y169.96 E18.95525
G1 X139.576 Y169.556 E19.00624
G1 X139.476 Y168.906 E19.08913
G1 X139.376 Y168.514 E19.14012
G1 X139.041 Y167.685 E19.25281
G1 X138.542 Y166.899 E19.37015
G1 X137.81 Y166.124 E19.50451
G1 X137.047 Y165.589 E19.62196
G1 X136.074 Y165.153 E19.75634
G1 X135.167 Y164.951 E19.87345
G1 X134.51 Y164.907 E19.95644
G1 X134.109 Y164.941 E20.00716
;WIDTH:0.85854
G1 X133.848 Y164.996 E20.03909
;WIDTH:0.816443
G1 X133.704 Y165.027 E20.05577
G1 E19.75577 F2400
G92 E0
G1 X130.851 Y165.597 F9000
G1 E.4 F2400
;WIDTH:0.9
G1 F1200
G1 X131.208 Y165.319 E.45703
G1 X131.86 Y164.924 E.55311
G1 X132.583 Y164.606 E.65266
G1 X166.083 Y152.409 E5.14593
G1 X166.861 Y152.145 E5.24948
G1 X167.637 Y151.918 E5.35138
G1 X168.421 Y151.725 E5.45314
G1 X169.213 Y151.566 E5.55495
G1 X170.011 Y151.442 E5.65673
G1 X170.814 Y151.351 E5.75858
G1 X171.619 Y151.296 E5.86027
G1 X172.457 Y151.276 E5.96592
G1 X173.235 Y151.29 E6.06399
G1 X174.042 Y151.339 E6.16589
G1 X174.845 Y151.422 E6.26763
G1 X175.644 Y151.541 E6.36944
G1 X176.437 Y151.693 E6.4712
G1 X177.223 Y151.88 E6.57303
G1 X178 Y152.101 E6.67484
G1 X178.767 Y152.354 E6.77663
G1 X179.523 Y152.641 E6.87855
G1 X180.265 Y152.96 E6.98034
G1 X180.993 Y153.311 E7.0822
G1 X181.704 Y153.692 E7.18386
G1 X182.399 Y154.104 E7.28569
G1 X183.076 Y154.546 E7.38759
G1 X183.732 Y155.017 E7.48937
G1 X184.368 Y155.515 E7.59118
G1 X184.982 Y156.04 E7.693
G1 X185.572 Y156.591 E7.79474
G1 X186.139 Y157.168 E7.8967
G1 X186.679 Y157.768 E7.99844
G1 X187.194 Y158.391 E8.10031
G1 X187.681 Y159.035 E8.20207
G1 X188.14 Y159.7 E8.30391
G1 X188.569 Y160.384 E8.40567
G1 X188.969 Y161.086 E8.5075
G1 X189.338 Y161.804 E8.60924
G1 X189.676 Y162.538 E8.71109
G1 X189.982 Y163.286 E8.81295
G1 X190.255 Y164.046 E8.91473
G1 X190.496 Y164.817 E9.01654
G1 X190.702 Y165.598 E9.11834
G1 X190.842 Y166.236 E9.20066
G1 X191.048 Y167.444 E9.35511
G1 X191.132 Y168.139 E9.44334
G1 X191.195 Y168.956 E9.54662
G1 X191.223 Y170.404 E9.72915
G1 X191.188 Y171.211 E9.83095
G1 X191.118 Y172.016 E9.93279
G1 X191.014 Y172.817 E10.03459
G1 X190.875 Y173.613 E10.13643
G1 X190.702 Y174.402 E10.23823
G1 X190.496 Y175.183 E10.34003
G1 X190.255 Y175.954 E10.44184
G1 X189.982 Y176.714 E10.54362
G1 X189.676 Y177.462 E10.64548
G1 X189.338 Y178.196 E10.74733
G1 X188.969 Y178.914 E10.84907
G1 X188.569 Y179.616 E10.9509
G1 X188.14 Y180.3 E11.05266
G1 X187.681 Y180.965 E11.1545
G1 X187.194 Y181.609 E11.25626
G1 X186.679 Y182.232 E11.35813
G1 X186.139 Y182.832 E11.45987
G1 X185.572 Y183.409 E11.56183
G1 X184.982 Y183.96 E11.66357
G1 X184.368 Y184.485 E11.76539
G1 X183.732 Y184.983 E11.8672
G1 X183.076 Y185.454 E11.96898
G1 X182.399 Y185.896 E12.07088
G1 X181.704 Y186.308 E12.17271
G1 X180.993 Y186.689 E12.27437
G1 X180.265 Y187.04 E12.37623
G1 X179.523 Y187.359 E12.47802
G1 X178.767 Y187.646 E12.57994
G1 X178 Y187.899 E12.68173
G1 X177.223 Y188.12 E12.78354
G1 X176.437 Y188.307 E12.88537
G1 X175.644 Y188.459 E12.98713
G1 X174.845 Y188.578 E13.08894
G1 X174.042 Y188.661 E13.19068
G1 X173.235 Y188.71 E13.29258
G1 X172.428 Y188.725 E13.39431
G1 X171.62 Y188.704 E13.49618
G1 X170.814 Y188.649 E13.598
G1 X170.011 Y188.558 E13.69985
G1 X169.213 Y188.434 E13.80163
G1 X168.421 Y188.275 E13.90344
G1 X167.637 Y188.082 E14.0052
G1 X166.861 Y187.855 E14.1071
G1 X166.084 Y187.591 E14.21053
G1 X132.312 Y175.288 E18.74058
G1 X131.831 Y175.061 E18.80761
G1 X131.399 Y174.808 E18.87071
G1 X130.724 Y174.295 E18.97756
G1 X130.305 Y173.889 E19.05109
G1 X129.961 Y173.484 E19.11806
G1 X129.659 Y173.048 E19.18491
G1 X129.228 Y172.22 E19.30256
G1 X129.051 Y171.742 E19.3668
G1 X128.918 Y171.252 E19.43079
G1 X128.806 Y170.525 E19.5235
G1 X128.779 Y170.013 E19.58812
G1 X128.829 Y169.249 E19.68462
G1 X128.923 Y168.729 E19.75122
G1 X129.203 Y167.841 E19.86857
