; generated by PrusaSlicer 2.6.0 on 2023-07-09 at 07:20:15 UTC

; 

; external perimeters extrusion width = 0.90mm
; perimeters extrusion width = 0.90mm
; infill extrusion width = 0.90mm
; solid infill extrusion width = 0.90mm
; top infill extrusion width = 0.80mm

M190 S60 ; set bed temperature and wait for it to be reached
;TYPE:Custom
; Start GCODE (begins)

G28 ; home all axes
G1 Z5 F5000 ; lift nozzle

M109 S200 ; Do this now so we can purge

; Extrude a small amount of waste material
G92 E0
G1 E20 F200
G92 E0

; Start GCODE (ends)
G21 ; set units to millimeters
G90 ; use absolute coordinates
M82 ; use absolute distances for extrusion
G92 E0
; Filament gcode
M107
;LAYER_CHANGE
;Z:0.35
;HEIGHT:0.35
G1 Z.43 F9000
G1 E-.3 F2400
G92 E0
G1 X125.714 Y159.329 F9000
G1 E.4 F2400
;TYPE:Skirt/Brim
;WIDTH:0.9
G1 F1200
G1 X126.695 Y158.592 E.55464
G1 X128.251 Y157.67 E.78259
G1 X129.763 Y157.013 E.99037
G1 X164.253 Y144.477 E5.6155
G1 X166.512 Y143.854 E5.91084
G1 X168.748 Y143.441 E6.19742
G1 X171.091 Y143.213 E6.49411
G1 X173.405 Y143.191 E6.78577
G1 X175.672 Y143.365 E7.07233
G1 X177.148 Y143.582 E7.26036
G1 X179.368 Y144.071 E7.54686
G1 X181.577 Y144.759 E7.83846
G1 X183.719 Y145.635 E8.13013
G1 X185.547 Y146.562 E8.38845
G1 X187.527 Y147.779 E8.68137
G1 X188.731 Y148.643 E8.86814
G1 X190.489 Y150.101 E9.15599
G1 X192.137 Y151.725 E9.4476
G1 X193.457 Y153.254 E9.70218
G1 X194.799 Y155.089 E9.9887
G1 X195.594 Y156.351 E10.17668
G1 X196.684 Y158.392 E10.4683
G1 X197.489 Y160.245 E10.72293
G1 X198.228 Y162.406 E11.01077
G1 X198.791 Y164.671 E11.30492
G1 X199.043 Y166.11 E11.48904
G1 X199.279 Y168.412 E11.78069
G1 X199.316 Y170.726 E12.07237
G1 X199.186 Y172.741 E12.32686
G1 X198.85 Y175.031 E12.61857
G1 X198.539 Y176.449 E12.80153
G1 X197.887 Y178.669 E13.09314
G1 X197.163 Y180.554 E13.34763
G1 X196.161 Y182.64 E13.63929
G1 X194.989 Y184.624 E13.92971
G1 X193.664 Y186.483 E14.21743
G1 X192.144 Y188.268 E14.51291
G1 X191.12 Y189.311 E14.69713
G1 X189.417 Y190.818 E14.98374
G1 X187.77 Y192.055 E15.24334
G1 X185.556 Y193.433 E15.57201
G1 X183.488 Y194.471 E15.86364
G1 X180.519 Y195.598 E16.26389
G1 X178.035 Y196.246 E16.58744
G1 X175.712 Y196.631 E16.88421
G1 X172.542 Y196.824 E17.28448
G1 X169.937 Y196.701 E17.61316
G1 X166.8 Y196.211 E18.01332
G1 X165.39 Y195.864 E18.19633
G1 X163.325 Y195.206 E18.46948
G1 X129.074 Y182.714 E23.06441
G1 X127.2 Y181.738 E23.33071
G1 X125.73 Y180.684 E23.55868
G1 X124.224 Y179.244 E23.82129
G1 X123.105 Y177.824 E24.04915
G1 X122.456 Y176.782 E24.20387
G1 X121.792 Y175.437 E24.39292
G1 X121.28 Y174.035 E24.58103
G1 X120.974 Y172.846 E24.73577
G1 X120.746 Y171.363 E24.92487
G1 X120.679 Y170.159 E25.07685
G1 X120.718 Y168.954 E25.2288
G1 X120.911 Y167.474 E25.41691
G1 X121.268 Y166.006 E25.60732
G1 X121.667 Y164.868 E25.75931
G1 X122.167 Y163.759 E25.91263
G1 X122.912 Y162.465 E26.10082
G1 X123.626 Y161.467 E26.25548
G1 X124.615 Y160.339 E26.44455
G1 X125.626 Y159.41 E26.6176
G1 E26.3176 F2400
G92 E0
G1 X177.417 Y171.667 F9000
G1 E.4 F2400
;TYPE:Perimeter
;WIDTH:0.9
G1 F1200
G1 X177.319 Y171.946 E.43727
G1 X177.086 Y172.446 E.50679
G1 X176.732 Y172.995 E.58912
G1 X176.468 Y173.354 E.64528
G1 X176.175 Y173.67 E.69959
G1 X175.661 Y174.121 E.78577
G1 X175.333 Y174.356 E.83662
G1 X174.86 Y174.629 E.90545
G1 X174.319 Y174.855 E.97934
G1 X173.844 Y175.016 E1.04255
G1 X173.45 Y175.108 E1.09354
G1 X172.908 Y175.179 E1.16243
G1 X172.236 Y175.181 E1.24713
G1 X171.696 Y175.135 E1.31543
G1 X171.015 Y174.97 E1.40374
G1 X170.555 Y174.816 E1.46488
G1 X170.057 Y174.583 E1.53417
G1 X169.709 Y174.377 E1.58514
G1 X169.162 Y173.975 E1.6707
G1 X168.832 Y173.672 E1.72716
G1 X168.381 Y173.158 E1.81334
G1 X168.146 Y172.83 E1.86419
G1 X167.873 Y172.358 E1.93291
G1 X167.706 Y171.989 E1.98396
G1 X167.486 Y171.341 E2.07021
G1 X167.394 Y170.947 E2.1212
G1 X167.323 Y170.406 E2.18997
G1 X167.332 Y169.495 E2.30479
G1 X167.389 Y169.095 E2.35571
G1 X167.551 Y168.434 E2.44148
G1 X167.686 Y168.053 E2.49242
G1 X167.919 Y167.554 E2.56183
G1 X168.125 Y167.207 E2.61269
G1 X168.527 Y166.66 E2.69825
G1 X168.829 Y166.33 E2.75463
G1 X169.343 Y165.879 E2.84081
G1 X169.672 Y165.644 E2.89177
G1 X170.146 Y165.37 E2.96077
G1 X170.513 Y165.204 E3.01154
G1 X171.161 Y164.984 E3.09779
G1 X171.791 Y164.861 E3.17869
G1 X172.317 Y164.804 E3.24537
G1 X173.037 Y164.843 E3.33625
G1 X173.582 Y164.918 E3.40559
G1 X174.108 Y165.059 E3.47422
G1 X174.487 Y165.202 E3.52527
G1 X175.1 Y165.504 E3.6114
G1 X175.557 Y165.805 E3.68037
G1 X175.963 Y166.12 E3.74513
G1 X176.512 Y166.696 E3.84542
G1 X176.754 Y167.019 E3.89629
G1 X177.109 Y167.604 E3.98253
G1 X177.299 Y168.011 E4.03914
G1 X177.519 Y168.659 E4.12539
G1 X177.616 Y169.093 E4.18144
G1 X177.682 Y169.593 E4.245
G1 X177.673 Y170.331 E4.33802
G1 X177.634 Y170.837 E4.40198
G1 X177.457 Y171.553 E4.49494
G1 X176.62 Y171.434 F9000
G1 F1200
G1 X176.378 Y172.012 E4.57391
G1 X176.067 Y172.507 E4.64759
G1 X175.807 Y172.86 E4.70285
G1 X175.118 Y173.501 E4.82146
G1 X174.585 Y173.835 E4.90074
G1 X174.227 Y174.015 E4.95124
G1 X173.579 Y174.235 E5.03749
G1 X173.009 Y174.334 E5.1104
G1 X172.585 Y174.371 E5.16404
G1 X172.039 Y174.347 E5.23292
G1 X171.211 Y174.169 E5.33966
G1 X170.904 Y174.069 E5.38035
G1 X170.406 Y173.836 E5.44964
G1 X169.65 Y173.31 E5.56572
G1 X169.001 Y172.615 E5.68557
G1 X168.587 Y171.945 E5.78483
G1 X168.267 Y171.076 E5.90154
G1 X168.141 Y170.298 E6.00087
G1 X168.156 Y169.531 E6.09756
G1 X168.353 Y168.631 E6.21368
G1 X168.666 Y167.904 E6.31344
G1 X169.192 Y167.148 E6.42952
G1 X169.887 Y166.499 E6.54937
G1 X170.557 Y166.085 E6.64863
G1 X171.333 Y165.796 E6.75299
G1 X171.664 Y165.71 E6.79609
G1 X172.209 Y165.638 E6.86538
G1 X172.982 Y165.666 E6.96287
G1 X173.368 Y165.715 E7.01191
G1 X173.895 Y165.856 E7.08067
G1 X174.559 Y166.157 E7.17255
G1 X174.942 Y166.372 E7.22791
G1 X175.375 Y166.705 E7.29675
G1 X175.903 Y167.253 E7.39266
G1 X176.264 Y167.801 E7.47537
G1 X176.512 Y168.26 E7.54112
G1 X176.737 Y168.924 E7.62948
G1 X176.863 Y169.694 E7.72782
G1 X176.85 Y170.277 E7.80132
G1 X176.805 Y170.793 E7.8666
G1 X176.665 Y171.323 E7.93569
G1 X175.869 Y171.105 F9000
;TYPE:External perimeter
G1 F1200
G1 X175.63 Y171.663 E8.0122
G1 X175.146 Y172.367 E8.11987
G1 X174.574 Y172.881 E8.21679
G1 X174.035 Y173.201 E8.29579
G1 X173.317 Y173.453 E8.39169
G1 X172.693 Y173.544 E8.47117
G1 X172.075 Y173.523 E8.5491
G1 X171.407 Y173.368 E8.63553
G1 X170.755 Y173.089 E8.72491
G1 X170.138 Y172.645 E8.82071
G1 X169.622 Y172.071 E8.91799
G1 X169.302 Y171.533 E8.99688
G1 X169.048 Y170.811 E9.09334
G1 X168.959 Y170.191 E9.17228
G1 X168.98 Y169.568 E9.25084
G1 X169.154 Y168.828 E9.34665
G1 X169.414 Y168.253 E9.42618
G1 X169.857 Y167.636 E9.52191
G1 X170.431 Y167.119 E9.61927
G1 X170.97 Y166.799 E9.69827
G1 X171.598 Y166.578 E9.78218
G1 X172.316 Y166.456 E9.87397
G1 X172.928 Y166.489 E9.95121
G1 X173.341 Y166.562 E10.00407
G1 X173.757 Y166.681 E10.0586
G1 X174.371 Y166.984 E10.14489
G1 X174.873 Y167.359 E10.22386
G1 X175.295 Y167.811 E10.3018
G1 X175.699 Y168.46 E10.39815
G1 X175.956 Y169.189 E10.49557
G1 X176.045 Y169.802 E10.57364
G1 X176.004 Y170.572 E10.67082
G1 X175.899 Y170.988 E10.72489
G1 X176.276 Y171.556 F9000
G1 E10.42489 F2400
G92 E0
G1 X176.666 Y171.213 F9000
G1 X176.638 Y171.309
G1 X176.578 Y171.484
G1 X176.516 Y171.643
G1 X176.503 Y171.676
G1 X176.434 Y171.833
G1 X176.358 Y171.987
G1 X176.341 Y172.02
G1 X176.256 Y172.174
G1 X176.157 Y172.336
G1 X176.052 Y172.493
G1 X175.94 Y172.645
G1 X175.825 Y172.788
G1 X175.712 Y172.917
G1 X175.687 Y172.944
G1 X175.565 Y173.072
G1 X175.428 Y173.202
G1 X175.286 Y173.326
G1 X175.143 Y173.441
G1 X175.005 Y173.543
G1 X174.975 Y173.563
G1 X174.833 Y173.658
G1 X174.687 Y173.747
G1 X174.655 Y173.765
G1 X174.505 Y173.848
G1 X174.352 Y173.923
G1 X174.318 Y173.939
G1 X174.156 Y174.01
G1 X173.98 Y174.078
G1 X173.801 Y174.139
G1 X173.619 Y174.191
G1 X173.435 Y174.236
G1 X173.25 Y174.273
G1 X173.069 Y174.301
G1 X172.898 Y174.319
G1 X172.862 Y174.322
G1 X172.685 Y174.334
G1 X172.496 Y174.338
G1 X172.307 Y174.333
G1 X172.118 Y174.321
G1 X171.93 Y174.3
G1 X171.743 Y174.271
G1 X171.557 Y174.233
G1 X171.374 Y174.188
G1 X171.192 Y174.135
G1 X171.014 Y174.074
G1 X170.842 Y174.008
G1 X170.686 Y173.939
G1 X170.653 Y173.923
G1 X170.499 Y173.848
G1 X170.349 Y173.765
G1 X170.317 Y173.747
G1 X170.167 Y173.655
G1 X170.014 Y173.553
G1 X169.876 Y173.452
G1 X169.848 Y173.43
G1 X169.714 Y173.323
G1 X169.572 Y173.198
G1 X169.448 Y173.08
G1 X169.422 Y173.054
G1 X169.3 Y172.926
G1 X169.175 Y172.783
G1 X169.058 Y172.636
G1 X168.949 Y172.488
G1 X168.854 Y172.346
G1 X168.834 Y172.314
G1 X168.743 Y172.163
G1 X168.652 Y171.997
G1 X168.569 Y171.828
G1 X168.495 Y171.66
G1 X168.426 Y171.484
G1 X168.365 Y171.304
G1 X168.317 Y171.14
G1 X168.308 Y171.105
G1 X168.267 Y170.939
G1 X168.231 Y170.753
G1 X168.204 Y170.584
G1 X168.2 Y170.548
G1 X168.181 Y170.378
G1 X168.17 Y170.207
G1 X168.168 Y170.171
G1 X168.165 Y170
G1 X168.166 Y169.917
G1 X133.585 Y165.863
G1 X133.414 Y165.102
G1 E.4 F2400
;TYPE:Perimeter
;WIDTH:0.800112
G1 F1200
G1 X133.758 Y165.003 E.43965
;WIDTH:0.850056
G1 X134.102 Y164.904 E.48203
;WIDTH:0.9
G1 X134.445 Y164.806 E.52699
G1 X166.357 Y153.188 E4.80723
G1 X167.11 Y152.932 E4.90747
G1 X167.851 Y152.715 E5.00478
G1 X168.601 Y152.531 E5.10211
G1 X169.358 Y152.379 E5.19942
G1 X170.121 Y152.259 E5.29677
G1 X170.888 Y152.173 E5.39404
G1 X171.659 Y152.12 E5.49144
G1 X172.431 Y152.1 E5.58877
G1 X173.174 Y152.113 E5.68243
G1 X173.975 Y152.161 E5.78356
G1 X174.742 Y152.241 E5.88075
G1 X175.506 Y152.354 E5.97809
G1 X176.264 Y152.5 E6.07538
G1 X177.015 Y152.679 E6.17268
G1 X177.758 Y152.889 E6.26999
G1 X178.491 Y153.132 E6.36732
G1 X179.213 Y153.406 E6.46465
G1 X179.923 Y153.711 E6.56204
G1 X180.618 Y154.046 E6.65928
G1 X181.299 Y154.411 E6.75666
G1 X181.963 Y154.805 E6.85397
G1 X182.61 Y155.227 E6.95133
G1 X183.238 Y155.677 E7.0487
G1 X183.845 Y156.153 E7.14592
G1 X184.432 Y156.655 E7.24327
G1 X184.995 Y157.181 E7.34038
G1 X185.557 Y157.754 E7.44154
G1 X186.055 Y158.307 E7.53533
G1 X186.546 Y158.902 E7.63256
G1 X187.012 Y159.518 E7.72991
G1 X187.451 Y160.154 E7.82731
G1 X187.861 Y160.808 E7.92459
G1 X188.244 Y161.479 E8.02197
G1 X188.596 Y162.166 E8.11926
G1 X188.919 Y162.867 E8.21654
G1 X189.212 Y163.582 E8.31393
G1 X189.473 Y164.308 E8.41116
G1 X189.703 Y165.046 E8.50859
G1 X189.9 Y165.792 E8.60583
G1 X190.066 Y166.547 E8.70326
G1 X190.198 Y167.307 E8.80048
G1 X190.298 Y168.073 E8.89784
G1 X190.353 Y168.706 E8.97792
G1 X190.398 Y169.751 E9.10975
G1 X190.398 Y170.386 E9.18978
G1 X190.365 Y171.158 E9.28717
G1 X190.298 Y171.927 E9.38446
G1 X190.198 Y172.693 E9.48182
G1 X190.066 Y173.453 E9.57904
G1 X189.9 Y174.208 E9.67647
G1 X189.703 Y174.954 E9.77371
G1 X189.473 Y175.692 E9.87114
G1 X189.212 Y176.418 E9.96837
G1 X188.919 Y177.133 E10.06576
G1 X188.596 Y177.834 E10.16304
G1 X188.244 Y178.521 E10.26033
G1 X187.861 Y179.192 E10.35771
G1 X187.451 Y179.846 E10.45499
G1 X187.012 Y180.482 E10.55239
G1 X186.546 Y181.098 E10.64974
G1 X186.055 Y181.693 E10.74697
G1 X185.538 Y182.267 E10.84433
G1 X184.997 Y182.818 E10.94165
G1 X184.432 Y183.345 E11.03903
G1 X183.845 Y183.847 E11.13638
G1 X183.238 Y184.323 E11.2336
G1 X182.61 Y184.773 E11.33097
G1 X181.963 Y185.195 E11.42833
G1 X181.299 Y185.589 E11.52564
G1 X180.618 Y185.954 E11.62302
G1 X179.923 Y186.289 E11.72026
G1 X179.213 Y186.594 E11.81765
G1 X178.491 Y186.868 E11.91498
G1 X177.758 Y187.111 E12.01231
G1 X177.015 Y187.321 E12.10962
G1 X176.264 Y187.5 E12.20692
G1 X175.506 Y187.646 E12.30421
G1 X174.742 Y187.759 E12.40155
G1 X173.974 Y187.839 E12.49887
G1 X173.203 Y187.886 E12.59622
G1 X172.431 Y187.9 E12.69353
G1 X171.659 Y187.88 E12.79086
G1 X170.888 Y187.827 E12.88826
G1 X170.121 Y187.741 E12.98553
G1 X169.358 Y187.621 E13.08288
G1 X168.601 Y187.469 E13.18019
G1 X167.851 Y187.285 E13.27752
G1 X167.11 Y187.068 E13.37483
G1 X166.357 Y186.812 E13.47507
G1 X134.521 Y175.215 E17.7454
G1 X134.265 Y175.14 E17.77902
;WIDTH:0.865457
G1 X134.01 Y175.066 E17.81108
;WIDTH:0.830914
G1 X133.755 Y174.991 E17.84177
;WIDTH:0.831259
G1 X134.018 Y175.038 E17.87264
;WIDTH:0.865629
G1 X134.281 Y175.066 E17.90459
;WIDTH:0.9
G1 X134.544 Y175.095 E17.93794
G1 X134.948 Y175.073 E17.98893
G1 X135.995 Y174.872 E18.1233
G1 X136.817 Y174.539 E18.23508
G1 X137.603 Y174.039 E18.35249
G1 X138.378 Y173.307 E18.48685
G1 X138.913 Y172.545 E18.60419
G1 X139.206 Y171.952 E18.68755
G1 X139.36 Y171.53 E18.74417
G1 X139.517 Y170.886 E18.82771
G1 X139.574 Y170.486 E18.87863
G1 X139.582 Y169.598 E18.99055
G1 X139.513 Y169.074 E19.05716
G1 X139.421 Y168.681 E19.10803
G1 X139.208 Y168.054 E19.19149
G1 X139.018 Y167.646 E19.24821
G1 X138.432 Y166.757 E19.38241
G1 X137.81 Y166.124 E19.49426
G1 X137.047 Y165.589 E19.61171
G1 X136.453 Y165.296 E19.69519
G1 X136.031 Y165.142 E19.75181
G1 X134.988 Y164.928 E19.886
G1 X134.461 Y164.905 E19.95248
G1 X134.059 Y164.936 E20.0033
;WIDTH:0.874873
G1 X133.844 Y164.992 E20.03045
;WIDTH:0.833305
G1 X133.629 Y165.047 E20.05616
;WIDTH:0.791737
G1 X133.53 Y165.072 E20.06734
G1 E19.76734 F2400
G92 E0
G1 X131.401 Y165.191 F9000
G1 E.4 F2400
;WIDTH:0.9
G1 F1200
G1 X131.847 Y164.93 E.46513
G1 X132.583 Y164.606 E.56648
G1 X166.083 Y152.409 E5.05975
G1 X166.861 Y152.145 E5.1633
G1 X167.637 Y151.918 E5.2652
G1 X168.421 Y151.725 E5.36696
G1 X169.213 Y151.566 E5.46877
G1 X170.011 Y151.442 E5.57055
G1 X170.814 Y151.351 E5.6724
G1 X171.62 Y151.296 E5.77422
G1 X172.428 Y151.275 E5.87609
G1 X173.206 Y151.289 E5.97416
G1 X174.042 Y151.339 E6.07971
G1 X174.845 Y151.422 E6.18145
G1 X175.644 Y151.541 E6.28326
G1 X176.437 Y151.693 E6.38502
G1 X177.223 Y151.88 E6.48685
G1 X178 Y152.101 E6.58866
G1 X178.767 Y152.354 E6.69045
G1 X179.523 Y152.641 E6.79237
G1 X180.265 Y152.96 E6.89416
G1 X180.993 Y153.311 E6.99602
G1 X181.704 Y153.692 E7.09768
G1 X182.399 Y154.104 E7.19951
G1 X183.076 Y154.546 E7.30141
G1 X183.732 Y155.017 E7.40319
G1 X184.368 Y155.515 E7.505
G1 X184.982 Y156.04 E7.60682
G1 X185.572 Y156.591 E7.70856
G1 X186.158 Y157.189 E7.81408
G1 X186.679 Y157.768 E7.91225
G1 X187.194 Y158.391 E8.01412
G1 X187.681 Y159.035 E8.11588
G1 X188.14 Y159.7 E8.21772
G1 X188.569 Y160.384 E8.31948
G1 X188.969 Y161.086 E8.42131
G1 X189.338 Y161.804 E8.52305
G1 X189.676 Y162.538 E8.6249
G1 X189.982 Y163.286 E8.72676
G1 X190.255 Y164.046 E8.82854
G1 X190.496 Y164.817 E8.93035
G1 X190.702 Y165.598 E9.03215
G1 X190.875 Y166.387 E9.13395
G1 X191.014 Y167.183 E9.23579
G1 X191.118 Y167.984 E9.33759
G1 X191.175 Y168.635 E9.41995
G1 X191.223 Y169.751 E9.56073
G1 X191.223 Y170.404 E9.64303
G1 X191.188 Y171.211 E9.74483
G1 X191.118 Y172.016 E9.84667
G1 X191.014 Y172.817 E9.94847
G1 X190.875 Y173.613 E10.05031
G1 X190.702 Y174.402 E10.15211
G1 X190.496 Y175.183 E10.25391
G1 X190.255 Y175.954 E10.35572
G1 X189.982 Y176.714 E10.4575
G1 X189.676 Y177.462 E10.55936
G1 X189.338 Y178.196 E10.66121
G1 X188.969 Y178.914 E10.76295
G1 X188.569 Y179.616 E10.86478
G1 X188.14 Y180.3 E10.96654
G1 X187.681 Y180.965 E11.06838
G1 X187.194 Y181.609 E11.17014
G1 X186.679 Y182.232 E11.27201
G1 X186.139 Y182.832 E11.37375
G1 X185.572 Y183.409 E11.47571
G1 X184.982 Y183.96 E11.57745
G1 X184.368 Y184.485 E11.67927
G1 X183.732 Y184.983 E11.78108
G1 X183.076 Y185.454 E11.88286
G1 X182.399 Y185.896 E11.98476
G1 X181.704 Y186.308 E12.08659
G1 X180.993 Y186.689 E12.18825
G1 X180.265 Y187.04 E12.29011
G1 X179.523 Y187.359 E12.3919
G1 X178.767 Y187.646 E12.49382
G1 X178 Y187.899 E12.59561
G1 X177.223 Y188.12 E12.69742
G1 X176.437 Y188.307 E12.79925
G1 X175.644 Y188.459 E12.90101
G1 X174.845 Y188.578 E13.00282
G1 X174.042 Y188.661 E13.10456
G1 X173.235 Y188.71 E13.20646
G1 X172.428 Y188.725 E13.30819
G1 X171.62 Y188.704 E13.41006
G1 X170.814 Y188.649 E13.51188
G1 X170.011 Y188.558 E13.61373
G1 X169.213 Y188.434 E13.71551
G1 X168.421 Y188.275 E13.81732
G1 X167.637 Y188.082 E13.91908
G1 X166.861 Y187.855 E14.02098
G1 X166.084 Y187.591 E14.12441
G1 X132.283 Y175.275 E18.65846
G1 X131.527 Y174.886 E18.76562
G1 X131.044 Y174.559 E18.83913
G1 X130.635 Y174.22 E18.90608
G1 X130.261 Y173.842 E18.9731
G1 X129.693 Y173.101 E19.09077
