; generated by PrusaSlicer 2.6.0 on 2023-07-09 at 07:20:19 UTC

; 

; external perimeters extrusion width = 0.90mm
; perimeters extrusion width = 0.90mm
; infill extrusion width = 0.90mm
; solid infill extrusion width = 0.90mm
; top infill extrusion width = 0.80mm

M190 S60 ; set bed temperature and wait for it to be reached
;TYPE:Custom
; Start GCODE (begins)

G28 ; home all axes
G1 Z5 F5000 ; lift nozzle

M109 S200 ; Do this now so we can purge

; Extrude a small amount of waste material
G92 E0
G1 E20 F200
G92 E0

; Start GCODE (ends)
G21 ; set units to millimeters
G90 ; use absolute coordinates
M82 ; use absolute distances for extrusion
G92 E0
; Filament gcode
M107
;LAYER_CHANGE
;Z:0.35
;HEIGHT:0.35
G1 Z.43 F9000
G1 E-.3 F2400
G92 E0
G1 X144.484 Y153.288 F9000
G1 E.4 F2400
;TYPE:Skirt/Brim
;WIDTH:0.9
G1 F1200
G1 X146 Y151.999 E.6508
G1 X147.873 Y150.688 E.93894
G1 X149.673 Y149.67 E1.19957
G1 X152.061 Y148.623 E1.5282
G1 X153.954 Y148.012 E1.7789
G1 X156.187 Y147.517 E2.06717
G1 X158.161 Y147.27 E2.3179
G1 X160.846 Y147.212 E2.65638
G1 X162.829 Y147.372 E2.90712
G1 X165.081 Y147.769 E3.19532
G1 X166.999 Y148.297 E3.44605
G1 X169.502 Y149.27 E3.78451
G1 X171.531 Y150.326 E4.07279
G1 X173.201 Y151.406 E4.32345
G1 X174.83 Y152.679 E4.58401
G1 X176.712 Y154.484 E4.91266
G1 X178.001 Y156 E5.16346
G1 X179.312 Y157.873 E5.4516
G1 X180.33 Y159.673 E5.71223
G1 X181.377 Y162.061 E6.04086
G1 X181.988 Y163.954 E6.29156
G1 X182.483 Y166.187 E6.57983
G1 X182.73 Y168.161 E6.83056
G1 X182.788 Y170.846 E7.16904
G1 X182.628 Y172.829 E7.41978
G1 X182.231 Y175.081 E7.70798
G1 X181.703 Y176.999 E7.95871
G1 X180.73 Y179.502 E8.29717
G1 X179.674 Y181.531 E8.58545
G1 X178.594 Y183.201 E8.83611
G1 X177.321 Y184.83 E9.09667
G1 X175.516 Y186.712 E9.42532
G1 X174 Y188.001 E9.67612
G1 X172.127 Y189.312 E9.96426
G1 X170.327 Y190.33 E10.22489
G1 X167.939 Y191.377 E10.55352
G1 X166.046 Y191.988 E10.80422
G1 X163.813 Y192.483 E11.09249
G1 X161.839 Y192.73 E11.34322
G1 X159.154 Y192.788 E11.6817
G1 X157.171 Y192.628 E11.93244
G1 X154.919 Y192.231 E12.22064
G1 X153.001 Y191.703 E12.47137
G1 X150.498 Y190.73 E12.80983
G1 X148.469 Y189.674 E13.09811
G1 X146.799 Y188.594 E13.34877
G1 X145.17 Y187.321 E13.60933
G1 X143.288 Y185.516 E13.93798
G1 X141.999 Y184 E14.18878
G1 X140.688 Y182.127 E14.47692
G1 X139.67 Y180.327 E14.73755
G1 X138.623 Y177.939 E15.06618
G1 X138.012 Y176.046 E15.31688
G1 X137.517 Y173.813 E15.60515
G1 X137.225 Y171.143 E15.94367
G1 X137.212 Y169.148 E16.19511
G1 X137.411 Y166.876 E16.48256
G1 X137.769 Y164.919 E16.7333
G1 X138.297 Y163.001 E16.98403
G1 X139.27 Y160.498 E17.32249
G1 X140.326 Y158.469 E17.61077
G1 X141.406 Y156.799 E17.86143
G1 X142.627 Y155.228 E18.1122
G1 X144.401 Y153.375 E18.43551
G1 E18.13551 F2400
G92 E0
G1 X170.931 Y171.316 F9000
G1 E.4 F2400
;TYPE:Perimeter
;WIDTH:0.9
G1 F1200
G1 X170.448 Y171.61 E.47126
G1 X170.089 Y171.716 E.51844
G1 X169.669 Y171.73 E.5714
G1 X169.12 Y171.597 E.64259
G1 X168.791 Y171.418 E.68979
G1 X168.484 Y171.131 E.74276
G1 X168.19 Y170.648 E.81402
G1 X168.084 Y170.289 E.8612
G1 X168.07 Y169.869 E.91416
G1 X168.203 Y169.32 E.98535
G1 X168.382 Y168.991 E1.03255
G1 X168.669 Y168.684 E1.08552
G1 X169.152 Y168.39 E1.15678
G1 X169.51 Y168.285 E1.2038
G1 X169.933 Y168.27 E1.25715
G1 X170.48 Y168.403 E1.3281
G1 X170.925 Y168.68 E1.39416
G1 X171.219 Y168.993 E1.44828
G1 X171.478 Y169.527 E1.52308
G1 X171.535 Y169.998 E1.58288
G1 X171.535 Y170.151 E1.60216
G1 X171.45 Y170.553 E1.65395
G1 X171.218 Y171.009 E1.71843
G1 X171.013 Y171.228 E1.75624
G1 X171.377 Y172.008 F9000
G1 F1200
G1 X171.282 Y172.097 E1.77265
G1 X170.764 Y172.378 E1.84692
G1 X170.465 Y172.465 E1.88617
G1 X170.002 Y172.552 E1.94554
G1 X169.365 Y172.531 E2.02587
G1 X168.8 Y172.363 E2.10016
G1 X168.527 Y172.213 E2.13942
G1 X168.139 Y171.947 E2.19871
G1 X167.703 Y171.482 E2.27905
G1 X167.422 Y170.964 E2.35332
G1 X167.335 Y170.664 E2.39269
G1 X167.248 Y170.203 E2.45182
G1 X167.269 Y169.565 E2.53227
G1 X167.437 Y169 E2.60656
G1 X167.587 Y168.727 E2.64582
G1 X167.853 Y168.339 E2.70511
G1 X168.318 Y167.903 E2.78545
G1 X168.836 Y167.622 E2.85972
G1 X169.133 Y167.536 E2.89869
G1 X169.606 Y167.448 E2.95933
G1 X170.234 Y167.469 E3.03852
G1 X170.8 Y167.637 E3.11293
G1 X171.275 Y167.898 E3.18124
G1 X171.617 Y168.183 E3.23735
G1 X171.903 Y168.525 E3.29354
G1 X172.173 Y169.017 E3.36427
G1 X172.305 Y169.471 E3.42386
G1 X172.36 Y169.998 E3.49064
G1 X172.36 Y170.223 E3.519
G1 X172.228 Y170.825 E3.59667
G1 X172.013 Y171.273 E3.6593
G1 X171.747 Y171.661 E3.71859
G1 X171.465 Y171.926 E3.76736
G1 X171.96 Y172.605 F9000
;TYPE:External perimeter
G1 F1200
G1 X171.748 Y172.783 E3.80225
G1 X171.079 Y173.145 E3.89812
G1 X170.398 Y173.344 E3.98754
G1 X169.8 Y173.398 E4.06321
G1 X169.209 Y173.346 E4.13798
G1 X168.481 Y173.128 E4.23376
G1 X167.858 Y172.787 E4.32327
G1 X167.397 Y172.402 E4.39897
G1 X167.017 Y171.948 E4.47359
G1 X166.655 Y171.279 E4.56946
G1 X166.456 Y170.598 E4.65888
G1 X166.402 Y170 E4.73455
G1 X166.454 Y169.409 E4.80932
G1 X166.672 Y168.681 E4.9051
G1 X167.013 Y168.058 E4.99461
G1 X167.398 Y167.597 E5.07031
G1 X167.852 Y167.217 E5.14493
G1 X168.521 Y166.855 E5.2408
G1 X169.202 Y166.656 E5.33022
G1 X169.807 Y166.602 E5.40677
G1 X170.39 Y166.654 E5.48054
G1 X171.119 Y166.872 E5.57644
G1 X171.742 Y167.213 E5.66595
G1 X172.203 Y167.597 E5.74157
G1 X172.588 Y168.058 E5.81727
G1 X172.929 Y168.68 E5.90667
G1 X173.078 Y169.107 E5.96367
G1 X173.185 Y169.704 E6.04011
G1 X173.185 Y170.296 E6.11472
G1 X173.118 Y170.671 E6.16273
G1 X172.933 Y171.311 E6.24669
G1 X172.587 Y171.942 E6.33739
G1 X172.202 Y172.403 E6.41309
G1 X172.052 Y172.528 E6.4377
G1 X171.697 Y172.521 F9000
G1 E6.1377 F2400
G92 E0
G1 X169.789 Y168.519 F9000
G1 E.4 F2400
;TYPE:Solid infill
;WIDTH:1.06498
G1 F1200
G1 X170.817 Y169.547 E.61988
G1 X170.85 Y169.607 E.63024
G1 X170.916 Y169.905 E.6764
G1 X170.916 Y170.091 E.70453
G1 X170.847 Y170.397 E.75197
G1 X170.704 Y170.658 E.79698
G1 X170.624 Y170.754 E.81588
G1 X169.046 Y169.176 E1.15339
G1 X168.896 Y169.342 E1.18723
G1 X168.777 Y169.559 E1.22466
G1 X168.694 Y169.838 E1.26868
G1 X168.679 Y169.999 E1.29314
G1 X168.717 Y170.246 E1.33094
G1 X169.95 Y171.48 E1.59477
G1 E1.29477 F2400
G92 E0
G1 X170.084 Y172.595 F9000
G1 X172.432 Y177.951
G1 X172.653 Y178.733
G1 X172.759 Y178.804
G1 E.4 F2400
;TYPE:External perimeter
;WIDTH:0.950346
G1 F1200
G1 X172.283 Y179.461 E.50849
G1 X171.859 Y179.988 E.59894
G1 X171.412 Y180.496 E.68943
G1 X170.943 Y180.983 E.77984
G1 X170.453 Y181.45 E.87036
G1 X169.944 Y181.895 E.96077
G1 X169.416 Y182.318 E1.05124
G1 X168.869 Y182.717 E1.14178
G1 X168.306 Y183.092 E1.23224
G1 X167.727 Y183.441 E1.32265
G1 X167.134 Y183.766 E1.41308
G1 X166.526 Y184.064 E1.50363
G1 X165.907 Y184.335 E1.59399
G1 X165.272 Y184.58 E1.68501
G1 X164.568 Y184.815 E1.78426
G1 X163.985 Y184.983 E1.86539
G1 X163.328 Y185.143 E1.95582
G1 X162.664 Y185.274 E2.04633
G1 X161.995 Y185.375 E2.13681
G1 X161.323 Y185.448 E2.2272
G1 X160.648 Y185.491 E2.31765
G1 X159.971 Y185.504 E2.4082
G1 X159.293 Y185.488 E2.49889
G1 X158.564 Y185.437 E2.59661
G1 X157.948 Y185.368 E2.6795
G1 X157.279 Y185.264 E2.77004
G1 X156.616 Y185.131 E2.86047
G1 X155.959 Y184.969 E2.95096
G1 X155.31 Y184.778 E3.04143
G1 X154.67 Y184.559 E3.13189
G1 X154.04 Y184.313 E3.22233
G1 X153.422 Y184.04 E3.31268
G1 X152.816 Y183.739 E3.40316
;WIDTH:0.951746
G1 X152.24 Y183.422 E3.49122
G1 X151.645 Y183.061 E3.58444
;WIDTH:0.950349
G1 X151.084 Y182.684 E3.67483
G1 X150.539 Y182.283 E3.76531
G1 X150.012 Y181.859 E3.85576
G1 X149.504 Y181.412 E3.94625
G1 X149.017 Y180.943 E4.03666
G1 X148.55 Y180.453 E4.12718
G1 X148.105 Y179.944 E4.21759
G1 X147.682 Y179.416 E4.30806
G1 X147.283 Y178.869 E4.3986
G1 X146.908 Y178.306 E4.48906
G1 X146.559 Y177.727 E4.57947
G1 X146.234 Y177.134 E4.6699
G1 X145.936 Y176.526 E4.76045
G1 X145.665 Y175.907 E4.85081
G1 X145.421 Y175.276 E4.94128
G1 X145.205 Y174.635 E5.03173
G1 X145.017 Y173.985 E5.12221
G1 X144.857 Y173.328 E5.21264
G1 X144.726 Y172.664 E5.30315
G1 X144.625 Y171.995 E5.39363
G1 X144.552 Y171.323 E5.48402
G1 X144.509 Y170.648 E5.57447
;WIDTH:0.950483
G1 X144.496 Y169.971 E5.66503
G1 X144.512 Y169.295 E5.75547
;WIDTH:0.950347
G1 X144.557 Y168.62 E5.84594
G1 X144.632 Y167.948 E5.93636
G1 X144.736 Y167.279 E6.0269
G1 X144.869 Y166.616 E6.11733
G1 X145.031 Y165.959 E6.20782
G1 X145.222 Y165.31 E6.29829
G1 X145.441 Y164.67 E6.38875
G1 X145.687 Y164.04 E6.47919
G1 X145.96 Y163.422 E6.56954
G1 X146.261 Y162.816 E6.66002
G1 X146.587 Y162.223 E6.75051
G1 X146.939 Y161.645 E6.84101
G1 X147.316 Y161.084 E6.9314
G1 X147.717 Y160.539 E7.02188
G1 X148.141 Y160.012 E7.11233
G1 X148.588 Y159.504 E7.20282
G1 X149.057 Y159.017 E7.29323
G1 X149.547 Y158.55 E7.38375
G1 X150.056 Y158.105 E7.47416
G1 X150.584 Y157.682 E7.56463
G1 X151.131 Y157.283 E7.65517
G1 X151.694 Y156.908 E7.74563
G1 X152.273 Y156.559 E7.83604
G1 X152.866 Y156.234 E7.92647
G1 X153.474 Y155.936 E8.01702
G1 X154.093 Y155.665 E8.10738
G1 X154.724 Y155.421 E8.19785
G1 X155.365 Y155.205 E8.2883
G1 X156.015 Y155.017 E8.37878
G1 X156.672 Y154.857 E8.46921
G1 X157.336 Y154.726 E8.55972
G1 X158.005 Y154.625 E8.6502
G1 X158.677 Y154.552 E8.74059
G1 X159.354 Y154.509 E8.83131
;WIDTH:0.951577
G1 X160.086 Y154.498 E8.92935
G1 X160.705 Y154.512 E9.01226
;WIDTH:0.950346
G1 X161.38 Y154.557 E9.10273
G1 X162.052 Y154.632 E9.19315
G1 X162.721 Y154.736 E9.28369
G1 X163.384 Y154.869 E9.37412
G1 X164.041 Y155.031 E9.46461
G1 X164.69 Y155.222 E9.55508
G1 X165.33 Y155.441 E9.64554
G1 X165.96 Y155.687 E9.73598
G1 X166.578 Y155.96 E9.82633
G1 X167.185 Y156.261 E9.91693
;WIDTH:0.951744
G1 X167.76 Y156.578 E10.00487
G1 X168.355 Y156.939 E10.09809
;WIDTH:0.950428
G1 X168.916 Y157.316 E10.18848
G1 X169.461 Y157.717 E10.27897
G1 X169.988 Y158.141 E10.36943
G1 X170.496 Y158.588 E10.45993
G1 X170.983 Y159.057 E10.55035
G1 X171.45 Y159.547 E10.64088
G1 X171.895 Y160.056 E10.7313
G1 X172.318 Y160.584 E10.82178
G1 X172.717 Y161.131 E10.91233
G1 X173.092 Y161.694 E11.0028
G1 X173.441 Y162.273 E11.09321
G1 X173.766 Y162.866 E11.18365
G1 X174.064 Y163.474 E11.2742
G1 X174.335 Y164.093 E11.36457
G1 X174.579 Y164.724 E11.45505
G1 X174.795 Y165.365 E11.54551
G1 X174.983 Y166.015 E11.636
G1 X175.143 Y166.672 E11.72643
G1 X175.274 Y167.336 E11.81694
G1 X175.375 Y168.005 E11.90742
G1 X175.448 Y168.677 E11.99782
G1 X175.505 Y170.012 E12.17652
;WIDTH:0.950346
G1 X175.488 Y170.705 E12.26922
G1 X175.443 Y171.38 E12.35969
G1 X175.368 Y172.052 E12.45011
G1 X175.264 Y172.721 E12.54065
G1 X175.131 Y173.384 E12.63108
G1 X174.968 Y174.042 E12.72173
G1 X174.76 Y174.743 E12.81951
G1 X174.559 Y175.33 E12.90248
G1 X174.313 Y175.96 E12.99292
G1 X174.04 Y176.578 E13.08327
G1 X173.739 Y177.185 E13.17387
;WIDTH:0.951745
G1 X173.422 Y177.76 E13.26181
G1 X173.061 Y178.355 E13.35503
;WIDTH:0.950346
G1 X172.826 Y178.705 E13.41141
G1 X171.766 Y178.688 F9000
;WIDTH:0.950349
G1 F1200
G1 X171.213 Y179.396 E13.53155
G1 X170.792 Y179.876 E13.61693
G1 X170.351 Y180.338 E13.70234
G1 X169.89 Y180.779 E13.78765
G1 X169.411 Y181.201 E13.87302
G1 X168.913 Y181.6 E13.95835
G1 X168.399 Y181.978 E14.04367
G1 X167.868 Y182.333 E14.12909
G1 X167.323 Y182.665 E14.21443
G1 X166.764 Y182.972 E14.29971
G1 X166.191 Y183.255 E14.38517
G1 X165.607 Y183.512 E14.47049
G1 X165.012 Y183.744 E14.55589
;WIDTH:0.951744
G1 X163.796 Y184.128 E14.72669
;WIDTH:0.950345
G1 X163.176 Y184.28 E14.81206
G1 X162.55 Y184.405 E14.89743
G1 X161.919 Y184.503 E14.98282
G1 X161.285 Y184.573 E15.06812
G1 X160.648 Y184.615 E15.15349
G1 X160.01 Y184.629 E15.23883
G1 X159.371 Y184.616 E15.3243
G1 X158.735 Y184.574 E15.40953
G1 X158.1 Y184.505 E15.49495
G1 X157.469 Y184.409 E15.5803
G1 X156.843 Y184.285 E15.66564
G1 X156.223 Y184.133 E15.75101
G1 X155.61 Y183.955 E15.83637
G1 X155.005 Y183.75 E15.92179
G1 X154.41 Y183.519 E16.00714
G1 X153.826 Y183.263 E16.09241
G1 X153.253 Y182.981 E16.17781
G1 X152.755 Y182.708 E16.25376
G1 X152.149 Y182.344 E16.34829
G1 X151.617 Y181.989 E16.43382
G1 X151.102 Y181.612 E16.51917
G1 X150.604 Y181.213 E16.6045
G1 X150.124 Y180.792 E16.68988
G1 X149.662 Y180.351 E16.77529
G1 X149.221 Y179.89 E16.8606
G1 X148.799 Y179.411 E16.94597
G1 X148.4 Y178.913 E17.0313
;WIDTH:0.95045
G1 X148.394 Y178.906 E17.03253
G1 X148.022 Y178.399 E17.11663
;WIDTH:0.950347
G1 X147.667 Y177.868 E17.20205
G1 X147.335 Y177.323 E17.28739
G1 X147.028 Y176.764 E17.37267
G1 X146.745 Y176.191 E17.45813
G1 X146.488 Y175.607 E17.54345
G1 X146.256 Y175.013 E17.62873
G1 X146.051 Y174.408 E17.71415
G1 X145.872 Y173.796 E17.79942
G1 X145.72 Y173.176 E17.88479
G1 X145.595 Y172.55 E17.97016
G1 X145.497 Y171.919 E18.05555
G1 X145.427 Y171.285 E18.14085
G1 X145.385 Y170.648 E18.22622
;WIDTH:0.950483
G1 X145.371 Y170.009 E18.3117
G1 X145.384 Y169.372 E18.39691
;WIDTH:0.950349
G1 X145.426 Y168.734 E18.48241
G1 X145.495 Y168.1 E18.56769
G1 X145.591 Y167.469 E18.65304
G1 X145.715 Y166.843 E18.73838
G1 X145.867 Y166.223 E18.82375
G1 X146.045 Y165.61 E18.90911
G1 X146.25 Y165.005 E18.99453
G1 X146.481 Y164.41 E19.07988
G1 X146.737 Y163.826 E19.16515
G1 X147.019 Y163.253 E19.25055
G1 X147.326 Y162.694 E19.33583
G1 X147.657 Y162.148 E19.42121
G1 X148.011 Y161.617 E19.50655
G1 X148.388 Y161.102 E19.5919
G1 X148.787 Y160.604 E19.67723
G1 X149.208 Y160.124 E19.76261
G1 X149.649 Y159.662 E19.84802
G1 X150.11 Y159.221 E19.93333
G1 X150.589 Y158.799 E20.0187
G1 X151.087 Y158.4 E20.10403
G1 X151.601 Y158.022 E20.18935
G1 X152.132 Y157.667 E20.27477
G1 X152.677 Y157.335 E20.36011
G1 X153.236 Y157.028 E20.44539
G1 X153.809 Y156.745 E20.53085
G1 X154.393 Y156.488 E20.61617
G1 X154.987 Y156.256 E20.70145
G1 X155.592 Y156.051 E20.78687
G1 X156.204 Y155.872 E20.87214
G1 X156.824 Y155.72 E20.95751
G1 X157.45 Y155.595 E21.04288
G1 X158.081 Y155.497 E21.12827
G1 X158.715 Y155.427 E21.21357
G1 X159.352 Y155.385 E21.29894
G1 X159.921 Y155.373 E21.37505
G1 X160.627 Y155.384 E21.46947
G1 X161.266 Y155.426 E21.55511
G1 X161.9 Y155.495 E21.64039
G1 X162.531 Y155.591 E21.72574
G1 X163.157 Y155.715 E21.81108
G1 X163.777 Y155.867 E21.89645
G1 X164.39 Y156.045 E21.98181
G1 X164.995 Y156.25 E22.06723
G1 X165.59 Y156.481 E22.15258
G1 X166.174 Y156.737 E22.23785
G1 X166.747 Y157.019 E22.32325
G1 X167.245 Y157.292 E22.3992
G1 X167.851 Y157.656 E22.49373
G1 X168.383 Y158.011 E22.57926
G1 X168.898 Y158.388 E22.66461
G1 X169.396 Y158.787 E22.74994
G1 X169.876 Y159.208 E22.83532
G1 X170.338 Y159.649 E22.92073
G1 X170.779 Y160.11 E23.00604
G1 X171.201 Y160.589 E23.09141
G1 X171.6 Y161.087 E23.17674
G1 X171.978 Y161.601 E23.26206
G1 X172.333 Y162.132 E23.34748
G1 X172.665 Y162.677 E23.43282
G1 X172.972 Y163.236 E23.5181
G1 X173.255 Y163.809 E23.60356
G1 X173.512 Y164.393 E23.68888
G1 X173.744 Y164.987 E23.77416
G1 X173.949 Y165.592 E23.85958
G1 X174.128 Y166.204 E23.94485
G1 X174.28 Y166.824 E24.03022
G1 X174.405 Y167.45 E24.11559
G1 X174.503 Y168.081 E24.20098
G1 X174.573 Y168.715 E24.28628
G1 X174.611 Y169.295 E24.36401
G1 X174.629 Y169.99 E24.45698
G1 X174.616 Y170.629 E24.54245
G1 X174.574 Y171.266 E24.62782
G1 X174.505 Y171.9 E24.7131
G1 X174.409 Y172.531 E24.79845
G1 X174.285 Y173.157 E24.88379
G1 X174.133 Y173.777 E24.96916
G1 X173.954 Y174.39 E25.05456
G1 X173.75 Y174.995 E25.13994
G1 X173.519 Y175.59 E25.22529
G1 X173.263 Y176.174 E25.31056
G1 X172.981 Y176.747 E25.39596
G1 X172.708 Y177.245 E25.47191
G1 X172.344 Y177.851 E25.56644
G1 X171.837 Y178.591 E25.6864
G1 X172.087 Y179.421 F9000
G1 E25.3864 F2400
G92 E0
G1 X171.941 Y178.667 F9000
G1 X169.993 Y177.361
G1 X165.932 Y175.191
G1 X165.833 Y175.135
G1 X165.733 Y175.073
G1 X165.636 Y175.008
G1 X165.541 Y174.939
G1 X165.448 Y174.867
G1 X165.361 Y174.795
G1 X165.273 Y174.716
G1 X165.189 Y174.635
G1 X165.107 Y174.551
G1 X165.028 Y174.464
G1 X164.955 Y174.377
G1 X164.883 Y174.284
G1 X164.813 Y174.189
G1 X164.748 Y174.091
G1 X164.686 Y173.991
G1 X164.628 Y173.889
G1 X164.575 Y173.788
G1 X164.548 Y173.73
G1 X160.971 Y172.334
G1 X161.269 Y171.544
G1 E.4 F2400
;TYPE:Perimeter
;WIDTH:0.9
G1 F1200
G1 X160.818 Y171.395 E.45986
G1 X160.35 Y171.325 E.5195
G1 X159.66 Y171.319 E.60647
