; generated by PrusaSlicer 2.6.0 on 2023-07-09 at 07:20:20 UTC

; 

; external perimeters extrusion width = 0.90mm
; perimeters extrusion width = 0.90mm
; infill extrusion width = 0.90mm
; solid infill extrusion width = 0.90mm
; top infill extrusion width = 0.80mm

M190 S60 ; set bed temperature and wait for it to be reached
;TYPE:Custom
; Start GCODE (begins)

G28 ; home all axes
G1 Z5 F5000 ; lift nozzle

M109 S200 ; Do this now so we can purge

; Extrude a small amount of waste material
G92 E0
G1 E20 F200
G92 E0

; Start GCODE (ends)
G21 ; set units to millimeters
G90 ; use absolute coordinates
M82 ; use absolute distances for extrusion
G92 E0
; Filament gcode
M107
;LAYER_CHANGE
;Z:0.35
;HEIGHT:0.35
G1 Z.43 F9000
G1 E-.3 F2400
G92 E0
G1 X151.817 Y139.578 F9000
G1 E.4 F2400
;TYPE:Skirt/Brim
;WIDTH:0.9
G1 F1200
G1 X152.716 Y138.613 E.56622
G1 X153.641 Y137.829 E.71904
G1 X154.762 Y137.091 E.88819
G1 X155.977 Y136.496 E1.0587
G1 X157.406 Y136.024 E1.24837
G1 X158.918 Y135.756 E1.4419
G1 X160.147 Y135.703 E1.59694
G1 X161.462 Y135.803 E1.76315
G1 X162.784 Y136.075 E1.93326
G1 X163.952 Y136.472 E2.08874
G1 X165.358 Y137.161 E2.28608
G1 X166.475 Y137.918 E2.45614
G1 X167.479 Y138.803 E2.62482
G1 X168.35 Y139.788 E2.79054
G1 X169.122 Y140.908 E2.96198
G1 X182.791 Y165.788 E6.53978
G1 X183.74 Y167.703 E6.80915
G1 X184.683 Y170.133 E7.13766
G1 X185.47 Y173.088 E7.52307
G1 X185.837 Y175.411 E7.81948
G1 X185.998 Y178.465 E8.20492
G1 X185.85 Y181.067 E8.53339
G1 X185.508 Y183.326 E8.82134
G1 X184.902 Y185.764 E9.13796
G1 X183.959 Y188.391 E9.48974
G1 X182.817 Y190.763 E9.82154
G1 X181.511 Y192.893 E10.13644
G1 X179.93 Y194.995 E10.46793
G1 X178.158 Y196.906 E10.79639
G1 X176.455 Y198.429 E11.08434
G1 X173.988 Y200.215 E11.46819
G1 X172.033 Y201.345 E11.75278
G1 X169.641 Y202.445 E12.0846
G1 X167.264 Y203.258 E12.40122
G1 X164.719 Y203.867 E12.73103
G1 X162.136 Y204.21 E13.05943
G1 X159.853 Y204.298 E13.34738
G1 X157.344 Y204.16 E13.66408
G1 X154.758 Y203.764 E13.9938
G1 X152.311 Y203.135 E14.31223
G1 X150.098 Y202.339 E14.60864
G1 X147.967 Y201.345 E14.905
G1 X146.012 Y200.215 E15.18959
G1 X143.545 Y198.429 E15.57344
G1 X141.842 Y196.906 E15.86139
G1 X140.07 Y194.995 E16.18985
G1 X138.489 Y192.893 E16.52134
G1 X137.183 Y190.763 E16.83624
G1 X136.041 Y188.391 E17.16804
G1 X135.098 Y185.764 E17.51982
G1 X134.492 Y183.326 E17.83644
G1 X134.15 Y181.067 E18.12439
G1 X134.002 Y178.465 E18.45286
G1 X134.163 Y175.411 E18.8383
G1 X134.53 Y173.088 E19.13471
G1 X135.317 Y170.133 E19.52012
G1 X136.26 Y167.703 E19.84863
G1 X137.209 Y165.788 E20.118
G1 X150.901 Y140.869 E23.7015
G1 X151.748 Y139.676 E23.8859
G1 E23.5859 F2400
G92 E0
G1 X156.578 Y174.764 F9000
G1 E.4 F2400
;TYPE:Perimeter
;WIDTH:0.943615
G1 F1200
G1 X156.781 Y175.137 E.45635
;WIDTH:0.920161
G1 X157.087 Y175.566 E.52439
;WIDTH:0.9
G1 X157.516 Y176.038 E.60478
G1 X158.069 Y176.45 E.69169
G1 X158.753 Y176.78 E.78741
G1 X159.217 Y176.916 E.84835
G1 X159.769 Y176.987 E.91849
G1 X160.224 Y176.988 E.97584
G1 X160.738 Y176.925 E1.04111
G1 X161.143 Y176.804 E1.09438
G1 X161.669 Y176.586 E1.16614
G1 X162.171 Y176.289 E1.23965
G1 X162.766 Y175.749 E1.34092
;WIDTH:0.908
G1 X163.108 Y175.314 E1.41134
;WIDTH:0.943567
G1 X163.422 Y174.764 E1.49538
G1 X163.362 Y175.184 E1.55168
;WIDTH:0.920126
G1 X163.316 Y175.708 E1.61959
;WIDTH:0.9
G1 X163.316 Y181.703 E2.37516
G1 X162.989 Y181.129 E2.45842
G1 X162.45 Y180.535 E2.55951
G1 X161.837 Y180.093 E2.65476
G1 X161.203 Y179.807 E2.74242
G1 X160.551 Y179.642 E2.82718
G1 X159.974 Y179.6 E2.90009
G1 X159.42 Y179.651 E2.97021
G1 X158.857 Y179.796 E3.04348
G1 X158.331 Y180.014 E3.11524
G1 X157.829 Y180.311 E3.18875
G1 X157.551 Y180.533 E3.23359
G1 X157.078 Y181.035 E3.32052
G1 X156.684 Y181.673 E3.41503
G1 X156.684 Y175.942 E4.13733
;WIDTH:0.908012
G1 X156.665 Y175.401 E4.20622
;WIDTH:0.943615
G1 X156.595 Y174.883 E4.27558
G1 E3.97558 F2400
G92 E0
G1 X156.57 Y171.912 F9000
G1 E.4 F2400
;WIDTH:0.919253
G1 F1200
G1 X156.425 Y172.323 E.45621
G1 X156.324 Y172.876 E.52871
;WIDTH:0.92868
G1 X156.294 Y173.481 E.60771
;WIDTH:0.95394
G1 X156.325 Y173.805 E.65141
;WIDTH:0.979201
G1 X156.357 Y174.13 E.69652
G1 X156.178 Y173.861 E.74115
;WIDTH:0.95394
G1 X155.999 Y173.593 E.78442
;WIDTH:0.92868
G1 X155.615 Y173.137 E.86217
;WIDTH:0.919253
G1 X155.135 Y172.748 E.94186
G1 X155.986 Y172.314 E1.06507
G1 X156.471 Y171.98 E1.14102
G1 E.84102 F2400
G92 E0
G1 X157.338 Y172.317 F9000
G1 X157.378 Y172.214
G1 X157.429 Y172.1
G1 X157.485 Y171.986
G1 X157.542 Y171.881
G1 X157.607 Y171.774
G1 X157.678 Y171.669
G1 X157.749 Y171.572
G1 X157.83 Y171.472
G1 X157.912 Y171.379
G1 X157.997 Y171.29
G1 X158.087 Y171.204
G1 X158.18 Y171.123
G1 X158.277 Y171.045
G1 X158.377 Y170.972
G1 X158.48 Y170.904
G1 X158.585 Y170.84
G1 X158.691 Y170.782
G1 X158.806 Y170.726
G1 X158.918 Y170.677
G1 X159.029 Y170.633
G1 X159.148 Y170.593
G1 X159.271 Y170.558
G1 X159.391 Y170.528
G1 X159.511 Y170.505
G1 X159.631 Y170.486
G1 X159.757 Y170.473
G1 X159.876 Y170.465
G1 X159.996 Y170.462
G1 X160.128 Y170.465
G1 X160.252 Y170.474
G1 X160.372 Y170.487
G1 X160.498 Y170.506
G1 X160.619 Y170.531
G1 X160.739 Y170.56
G1 X160.854 Y170.594
G1 X160.976 Y170.635
G1 X161.091 Y170.68
G1 X161.204 Y170.731
G1 X161.314 Y170.785
G1 X161.42 Y170.843
G1 X161.529 Y170.91
G1 X161.631 Y170.978
G1 X161.728 Y171.049
G1 X161.828 Y171.13
G1 X161.921 Y171.212
G1 X162.01 Y171.297
G1 X162.096 Y171.387
G1 X162.177 Y171.48
G1 X162.254 Y171.576
G1 X162.325 Y171.673
G1 X162.395 Y171.779
G1 X162.458 Y171.881
G1 X162.518 Y171.991
G1 X162.574 Y172.105
G1 X162.622 Y172.215
G1 X162.668 Y172.333
G1 X162.707 Y172.448
G1 X162.738 Y172.554
G1 X165.354 Y173.462
G1 X164.856 Y172.749
G1 E.4 F2400
;WIDTH:0.917191
G1 F1200
G1 X164.595 Y172.953 E.44262
G1 X164.246 Y173.292 E.50522
;WIDTH:0.945923
G1 X163.826 Y173.817 E.59467
;WIDTH:0.977805
G1 X163.629 Y174.177 E.65127
G1 X163.689 Y173.772 E.70774
;WIDTH:0.945923
G1 X163.701 Y173.12 E.7945
;WIDTH:0.917191
G1 X163.601 Y172.436 E.88344
G1 X163.426 Y171.908 E.95501
G1 X163.717 Y172.126 E1.00179
G1 X164.749 Y172.694 E1.15335
G1 E.85335 F2400
G92 E0
G1 X162.467 Y185.993 F9000
G1 E.4 F2400
;WIDTH:0.816529
G1 F1200
G1 X162.957 Y185.445 E.48327
G1 X163.248 Y184.954 E.54793
G1 X163.456 Y184.451 E.60959
G1 X163.562 Y184.985 E.67126
G1 X163.697 Y185.469 E.72818
G1 X163.88 Y186.001 E.79191
G1 X163.323 Y185.929 E.85553
G1 X162.847 Y185.927 E.90945
G1 X162.585 Y185.972 E.93956
G1 E.63956 F2400
G92 E0
G1 X156.217 Y185.985 F9000
G1 E.4 F2400
;WIDTH:0.816664
G1 F1200
G1 X156.121 Y185.997 E.41096
G1 X156.424 Y185.057 E.52286
G1 X156.547 Y184.492 E.58837
G1 X156.772 Y185.007 E.65205
G1 X157.043 Y185.445 E.71041
G1 X157.532 Y185.992 E.79354
G1 X157.298 Y185.948 E.82052
G1 X156.831 Y185.916 E.87356
G1 X156.336 Y185.971 E.92999
G1 X157.49 Y184.672 F9000
;WIDTH:0.9
G1 F1200
G1 X157.389 Y184.498 E.95535
;WIDTH:0.943582
G1 X157.305 Y184.315 E.98207
;WIDTH:0.987164
G1 X157.221 Y184.132 E1.01013
;WIDTH:1.03075
G1 X157.137 Y183.949 E1.03953
;WIDTH:1.07031
G1 X157.101 Y183.867 E1.05315
;WIDTH:1.10987
G1 X157.066 Y183.785 E1.06725
;WIDTH:1.14943
G1 X157.03 Y183.704 E1.0818
G1 X157.02 Y183.153 E1.17226
;WIDTH:1.14566
G1 X157.049 Y182.798 E1.23052
G1 X157.097 Y182.697 E1.24881
;WIDTH:1.10469
G1 X157.144 Y182.597 E1.26619
;WIDTH:1.06372
G1 X157.192 Y182.496 E1.28308
;WIDTH:1.02275
G1 X157.24 Y182.395 E1.29927
;WIDTH:0.981779
G1 X157.288 Y182.295 E1.31464
;WIDTH:0.940808
G1 X157.573 Y181.766 E1.39412
;WIDTH:0.9
G1 X157.894 Y181.346 E1.46074
G1 X158.345 Y180.954 E1.53605
G1 X158.646 Y180.776 E1.58012
G1 X159.172 Y180.558 E1.65188
G1 X159.513 Y180.471 E1.69623
G1 X160.103 Y180.43 E1.77077
G1 X160.631 Y180.499 E1.83788
G1 X161.199 Y180.69 E1.91341
G1 X161.658 Y180.956 E1.98027
G1 X162.123 Y181.367 E2.05849
G1 X162.346 Y181.645 E2.10341
;WIDTH:0.938413
G1 X162.562 Y182.052 E2.16419
;WIDTH:0.976826
G1 X162.778 Y182.458 E2.22755
;WIDTH:1.01904
G1 X162.821 Y182.543 E2.24129
;WIDTH:1.06124
G1 X162.864 Y182.628 E2.25564
;WIDTH:1.10345
G1 X162.908 Y182.713 E2.27068
;WIDTH:1.14566
G1 X162.951 Y182.798 E2.28626
G1 X162.985 Y183.3 E2.36856
;WIDTH:1.16203
G1 X162.959 Y183.803 E2.4522
G1 X162.887 Y183.945 E2.47864
;WIDTH:1.11836
G1 X162.814 Y184.087 E2.50409
;WIDTH:1.07469
G1 X162.742 Y184.228 E2.52827
;WIDTH:1.03101
G1 X162.669 Y184.37 E2.55159
;WIDTH:0.987343
G1 X162.597 Y184.512 E2.57378
;WIDTH:0.943671
G1 X162.524 Y184.654 E2.59497
;WIDTH:0.9
G1 X162.346 Y184.955 E2.63904
;WIDTH:0.949772
G1 X161.948 Y185.443 E2.72319
;WIDTH:0.995993
G1 X161.855 Y185.543 E2.7424
;WIDTH:1.04221
G1 X161.762 Y185.643 E2.76258
;WIDTH:1.08844
G1 X161.668 Y185.744 E2.78394
;WIDTH:1.13466
G1 X161.575 Y185.844 E2.80605
G1 X161.049 Y186.091 E2.90012
;WIDTH:1.11733
G1 X160.541 Y186.233 E2.98411
;WIDTH:1.11871
G1 X160 Y186.284 E3.07076
G1 X159.499 Y186.238 E3.15098
;WIDTH:1.11861
G1 X159.39 Y186.219 E3.16862
;WIDTH:1.1321
G1 X158.87 Y186.043 E3.25728
;WIDTH:1.13466
G1 X158.425 Y185.844 E3.33619
G1 X158.332 Y185.744 E3.3583
;WIDTH:1.08844
G1 X158.238 Y185.643 E3.37966
;WIDTH:1.04222
G1 X158.145 Y185.543 E3.39984
;WIDTH:0.996001
G1 X158.052 Y185.443 E3.41905
;WIDTH:0.949782
G1 X157.654 Y184.955 E3.50321
;WIDTH:0.9
G1 X157.551 Y184.776 E3.52924
G1 X158.332 Y184.451 F9000
;TYPE:External perimeter
G1 F1200
G1 X158.198 Y184.265 E3.55813
G1 X158.059 Y183.933 E3.60349
G1 X157.976 Y183.621 E3.64418
G1 X157.952 Y183.255 E3.69041
G1 X158.008 Y182.822 E3.74544
G1 X158.125 Y182.475 E3.79159
G1 X158.342 Y182.096 E3.84663
G1 X158.584 Y181.82 E3.89289
G1 X158.962 Y181.538 E3.95233
G1 X159.492 Y181.318 E4.02465
G1 X159.992 Y181.25 E4.08825
G1 X160.4 Y181.291 E4.13993
G1 X160.817 Y181.421 E4.19498
G1 X161.141 Y181.599 E4.24157
G1 X161.48 Y181.884 E4.29739
G1 X161.762 Y182.262 E4.35683
G1 X161.98 Y182.788 E4.42859
G1 X162.05 Y183.3 E4.49372
G1 X161.984 Y183.803 E4.55766
G1 X161.762 Y184.338 E4.63066
G1 X161.461 Y184.738 E4.69375
G1 X161.071 Y185.047 E4.75646
G1 X160.742 Y185.209 E4.80268
G1 X160.319 Y185.324 E4.85793
G1 X159.955 Y185.348 E4.90391
G1 X159.567 Y185.304 E4.95312
G1 X158.962 Y185.062 E5.03524
G1 X158.54 Y184.739 E5.10222
G1 X158.402 Y184.548 E5.13192
G1 X158.106 Y184.487 F9000
G1 E4.83192 F2400
G92 E0
G1 X157.77 Y185.054 F9000
G1 X153.265 Y188.393
G1 X153.071 Y188.536
G1 X153.039 Y188.559
G1 X152.839 Y188.693
G1 X152.807 Y188.715
G1 X152.601 Y188.84
G1 X152.567 Y188.861
G1 X152.356 Y188.977
G1 X152.322 Y188.995
G1 X152.071 Y189.12
G1 X151.851 Y189.218
G1 X151.815 Y189.234
G1 X151.558 Y189.344
G1 X151.298 Y189.453
G1 X151.071 Y189.538
G1 X151.032 Y189.549
G1 X150.759 Y189.617
G1 X150.482 Y189.672
G1 X150.203 Y189.715
G1 X149.963 Y189.742
G1 X149.923 Y189.747
G1 X149.984 Y190.619
G1 E.4 F2400
;TYPE:Perimeter
;WIDTH:0.93073
G1 F1200
G1 X149.928 Y190.725 E.41567
G1 X149.693 Y191.453 E.51568
G1 X149.627 Y191.835 E.56636
G1 X148.705 Y191.076 E.72248
G1 X148.138 Y190.553 E.82332
G1 X148.905 Y190.633 E.92413
G1 X149.864 Y190.623 E1.04951
G1 E.74951 F2400
G92 E0
G1 X150.745 Y191.052 F9000
G1 X150.77 Y191
G1 X150.785 Y190.969
G1 X150.833 Y190.881
G1 X150.885 Y190.795
G1 X150.904 Y190.764
G1 X150.961 Y190.677
G1 X151.027 Y190.586
G1 X151.09 Y190.507
G1 X151.111 Y190.48
G1 X151.177 Y190.404
G1 X151.258 Y190.318
G1 X151.342 Y190.236
G1 X151.448 Y190.152
G1 X155.383 Y187.184
G1 X155.482 Y187.116
G1 X155.571 Y187.066
G1 X155.601 Y187.05
G1 X155.692 Y187.004
G1 X155.801 Y186.954
G1 X155.912 Y186.91
G1 X156.024 Y186.87
G1 X156.139 Y186.835
G1 X156.254 Y186.805
G1 X156.371 Y186.781
G1 X156.489 Y186.761
G1 X156.608 Y186.747
G1 X156.727 Y186.738
G1 X156.846 Y186.734
G1 X163.161 Y186.734
G1 X163.279 Y186.738
G1 X163.392 Y186.747
G1 X163.511 Y186.761
G1 X163.612 Y186.778
G1 X163.647 Y186.785
G1 X163.751 Y186.807
G1 X163.861 Y186.835
G1 X163.959 Y186.865
G1 X163.993 Y186.876
G1 X164.095 Y186.912
G1 X164.205 Y186.957
G1 X164.314 Y187.007
G1 X164.42 Y187.061
G1 X164.524 Y187.12
G1 X164.622 Y187.188
G1 X168.57 Y190.166
G1 X168.658 Y190.236
G1 X168.73 Y190.306
G1 X168.755 Y190.332
G1 X168.826 Y190.408
G1 X168.9 Y190.493
G1 X168.962 Y190.572
G1 X168.983 Y190.6
G1 X169.042 Y190.681
G1 X169.097 Y190.765
G1 X169.116 Y190.796
G1 X169.17 Y190.887
G1 X169.226 Y190.991
G1 X169.229 Y190.998
G1 X170.014 Y190.619
G1 E.4 F2400
;WIDTH:0.926362
G1 F1200
G1 X171.049 Y190.635 E.53463
G1 X171.89 Y190.533 E.64481
G1 X171.236 Y191.134 E.76033
G1 X170.373 Y191.838 E.90518
G1 X170.359 Y191.693 E.92413
G1 X170.245 Y191.185 E.99184
G1 X170.059 Y190.73 E1.05577
G1 E.75577 F2400
G92 E0
G1 X170.125 Y189.75 F9000
G1 X170.077 Y189.747
G1 X169.797 Y189.715
G1 X169.518 Y189.672
G1 X169.241 Y189.617
G1 X168.968 Y189.549
G1 X168.929 Y189.538
G1 X168.665 Y189.439
G1 X168.406 Y189.329
G1 X168.185 Y189.234
G1 X168.149 Y189.218
G1 X167.929 Y189.12
G1 X167.678 Y188.995
G1 X167.644 Y188.977
G1 X167.433 Y188.861
G1 X167.399 Y188.84
G1 X167.193 Y188.715
G1 X166.961 Y188.559
G1 X166.929 Y188.536
G1 X166.735 Y188.393
G1 X166.704 Y188.369
G1 X166.517 Y188.218
G1 X166.487 Y188.192
G1 X166.306 Y188.033
G1 X166.278 Y188.006
G1 X166.104 Y187.839
G1 X166.077 Y187.811
G1 X165.911 Y187.637
G1 X165.885 Y187.608
G1 X165.726 Y187.426
G1 X165.573 Y187.241
G1 X165.548 Y187.21
G1 X165.371 Y186.992
G1 X165.195 Y186.771
G1 X165.065 Y186.568
G1 X165.044 Y186.533
G1 X164.908 Y186.286
G1 X164.784 Y186.033
G1 X164.67 Y185.774
G1 X164.568 Y185.512
G1 X164.477 Y185.244
G1 X164.399 Y184.973
G1 X164.332 Y184.7
G1 X164.277 Y184.423
G1 X164.234 Y184.144
G1 X162.516 Y169.801
G1 X162.359 Y169.577
G1 X162.212 Y169.345
G1 X162.074 Y169.108
G1 X161.947 Y168.865
G1 X161.83 Y168.617
G1 X161.723 Y168.364
G1 X161.627 Y168.107
G1 X161.542 Y167.846
G1 X161.468 Y167.582
G1 X161.406 Y167.315
G1 X161.354 Y167.046
G1 X161.314 Y166.774
G1 X161.285 Y166.502
G1 X161.268 Y166.228
G1 X161.263 Y165.967
G1 X161.263 Y150.547
G1 X161.264 Y150.471
G1 X161.27 Y150.385
G1 X161.279 Y150.301
G1 X161.29 Y150.229
G1 X161.296 Y150.197
G1 X161.311 Y150.124
G1 X160.482 Y149.955
G1 E.4 F2400
;WIDTH:0.89164
G1 F1200
G1 X160.407 Y150.526 E.47185
;WIDTH:0.888516
G1 X160.406 Y165.955 E2.38935
;WIDTH:0.892681
G1 X160.408 Y166.085 E2.40559
;WIDTH:0.919839
G1 X160.418 Y166.448 E2.45246
;WIDTH:0.946998
G1 X160.427 Y166.812 E2.50096
G1 X160.536 Y167.313 E2.56926
;WIDTH:0.91322
G1 X160.683 Y167.968 E2.65522
;WIDTH:0.9
G1 X160.914 Y168.635 E2.74418
G1 X161.206 Y169.278 E2.83318
G1 X161.583 Y169.961 E2.9315
G1 X161.204 Y169.807 E2.98306
G1 X160.7 Y169.667 E3.04899
G1 X160.174 Y169.608 E3.1157
G1 X159.616 Y169.63 E3.18608
G1 X158.979 Y169.749 E3.26775
G1 X158.402 Y169.97 E3.34562
G1 X158.721 Y169.448 E3.42272
G1 X158.946 Y168.993 E3.48669
G1 X159.171 Y168.407 E3.5658
G1 X159.329 Y167.916 E3.63081
;WIDTH:0.91322
G1 X159.479 Y167.303 E3.71162
;WIDTH:0.941433
G1 X159.562 Y166.746 E3.78616
G1 X159.578 Y166.35 E3.83862
;WIDTH:0.914605
G1 X159.594 Y165.955 E3.88933
;WIDTH:0.888516
G1 X159.593 Y150.526 E5.80683
;WIDTH:0.89164
G1 X159.519 Y149.959 E5.87817
G1 X159.937 Y149.99 E5.93046
G1 X160.362 Y149.963 E5.98359
G1 E5.68359 F2400
G92 E0
G1 X158.972 Y170.631 F9000
G1 E.4 F2400
;WIDTH:0.9
G1 F1200
G1 X159.274 Y170.521 E.44051
G1 X159.706 Y170.45 E.49569
G1 X160.103 Y170.43 E.54579
G1 X160.631 Y170.499 E.6129
G1 X161.166 Y170.673 E.6838
;WIDTH:0.94909
G1 X161.371 Y170.767 E.71392
;WIDTH:0.99818
G1 X161.576 Y170.86 E.74567
;WIDTH:1.04727
G1 X161.782 Y170.954 E.7793
;WIDTH:1.08603
G1 X161.951 Y171.075 E.8114
;WIDTH:1.12479
G1 X162.12 Y171.196 E.84473
;WIDTH:1.14952
G1 X162.459 Y171.587 E.92968
G1 X162.505 Y171.712 E.95155
;WIDTH:1.10406
G1 X162.55 Y171.837 E.97244
;WIDTH:1.0586
G1 X162.595 Y171.962 E.9924
;WIDTH:1.01313
G1 X162.641 Y172.087 E1.01149
;WIDTH:0.967669
G1 X162.721 Y172.378 E1.05265
;WIDTH:0.933834
G1 X162.801 Y172.669 E1.09225
;WIDTH:0.9
G1 X162.87 Y173.192 E1.15874
G1 X162.845 Y173.697 E1.22246
G1 X162.701 Y174.274 E1.29741
G1 X162.479 Y174.752 E1.36383
G1 X162.123 Y175.233 E1.43925
G1 X161.655 Y175.646 E1.51792
G1 X161.354 Y175.824 E1.56199
G1 X160.828 Y176.042 E1.63375
G1 X160.489 Y176.129 E1.67786
G1 X159.985 Y176.175 E1.74165
G1 X159.388 Y176.109 E1.81735
G1 X158.778 Y175.898 E1.8987
